!!!COM: Beethoven, Ludwig van
!!!CDT: 1770///-1827///
!!!ODT: 1798///-1800///
!!!OTL: String Quartet No. 1 in F Major, Op. 18, No. 1
!!!OPS: Op. 18
!!!ONM: No. 1
!!!OMV: Mvmt. 1
!!!OMD: Allegro con brio
!!!PDT: 1801///
!!!PPP: Vienna
!!!PPR: C. Haslinger qm Tobias
!!!ODE: Dem F&uuml;rsten von Lobkowitz gewidmet
!!!MPD: 1798///-1800///
**kern	**dynam	**kern	**dynam	**kern	**dynam	**kern	**dynam
*staff4	*staff4	*staff3	*staff3	*staff2	*staff2	*staff1	*staff1
*Icello	*Icello	*Iviola	*Iviola	*Ivioln	*Ivioln	*Ivioln	*Ivioln
*>[A,A,B]	*>[A,A,B]	*>[A,A,B]	*>[A,A,B]	*>[A,A,B]	*>[A,A,B]	*>[A,A,B]	*>[A,A,B]
*>norep[A,B]	*>norep[A,B]	*>norep[A,B]	*>norep[A,B]	*>norep[A,B]	*>norep[A,B]	*>norep[A,B]	*>norep[A,B]
*>A	*>A	*>A	*>A	*>A	*>A	*>A	*>A
*clefF4	*clefF4	*clefC3	*clefC3	*clefG2	*clefG2	*clefG2	*clefG2
*k[b-]	*k[b-]	*k[b-]	*k[b-]	*k[b-]	*k[b-]	*k[b-]	*k[b-]
*M3/4	*M3/4	*M3/4	*M3/4	*M3/4	*M3/4	*M3/4	*M3/4
*MM132	*MM132	*MM132	*MM132	*MM132	*MM132	*MM132	*MM132
([4F\	.	([4F/	.	([4f/	.	[4f/	.
8F\L]	p	8F/L]	p	8f/L]	p	(8f/L]	p
16G\L	.	16G/L	.	16g/L	.	16g/L	.
16F\JJ)	.	16F/JJ	.	16f/JJ	.	16f/JJ)	.
8E'\L	.	8E'/L)	.	8e'/L)	.	8e'/L	.
8F'\J	.	8F'/J	.	8f'/J	.	8f'/J	.
=2	=2	=2	=2	=2	=2	=2	=2
4C/	.	4C/	.	4c/	.	4c/	.
4r	.	4r	.	4r	.	4r	.
4r	.	4r	.	4r	.	4r	.
=3	=3	=3	=3	=3	=3	=3	=3
([4F\	.	[4F/	.	([4f/	.	[4f/	.
8F\L]	.	(8F/L]	.	8f/L]	.	(8f/L]	.
16G\L	.	16G/L	.	16g/L	.	16g/L	.
16F\JJ)	.	16F/JJ)	.	16f/JJ	.	16f/JJ)	.
8E'\L	.	8E'/L	.	8e'/L)	.	8e'/L	.
8F'\J	.	8F'/J	.	8f'/J	.	8f'/J	.
=4	=4	=4	=4	=4	=4	=4	=4
4D\	.	4D/	.	4d/	.	4d/	.
4r	.	4r	.	4r	.	4r	.
4r	.	4r	.	4r	.	4r	.
=5	=5	=5	=5	=5	=5	=5	=5
(2.D\	.	(2.d\	.	[2.b-\	.	[4ff\	.
.	.	.	.	.	.	(8ff\L]	.
.	.	.	.	.	.	16gg\L	.
.	.	.	.	.	.	16ff\JJ	.
.	.	.	.	.	.	8ee'\L)	.
.	.	.	.	.	.	8ff'\J	.
=6	=6	=6	=6	=6	=6	=6	=6
2.E\)	.	[2.c\)	.	(2b-\]	.	(2gg\	.
.	.	.	.	4g/)	.	4b-\)	.
=7	=7	=7	=7	=7	=7	=7	=7
(4F\	.	(4c\]	.	(2f/	.	(2a/	.
4D\	.	4d\	.	.	.	.	.
4BB-/)	.	4G/)	.	8.b-/L	.	8.dd\L)	.
.	.	.	.	16g/Jk)	.	16b-\Jk	.
=8	=8	=8	=8	=8	=8	=8	=8
2.C/	.	(8c/L	.	(2f/	.	(2a/	.
.	.	8Bn/	.	.	.	.	.
.	.	8c/	.	.	.	.	.
.	.	8B/J	.	.	.	.	.
.	.	4c\)	.	4e/)	.	4g/)	.
=9	=9	=9	=9	=9	=9	=9	=9
([4F\	.	[4F/	.	([4f/	.	[4f/	.
8F\L]	f	(8F/L]	f	8f/L]	f	(8f/L]	f
16G\L	.	16G/L	.	16g/L	.	16g/L	.
16F\JJ)	.	16F/JJ)	.	16f/JJ	.	16f/JJ)	.
8E'\L	.	8E'/L	.	8e'/L)	.	8e'/L	.
8F'\J	.	8F'/J	.	8f'/J	.	8f'/J	.
=10	=10	=10	=10	=10	=10	=10	=10
4C/	.	4C/	.	4c/	.	4c/	.
4r	.	4r	.	4r	.	4r	.
4r	.	4r	.	4r	.	4r	.
=11	=11	=11	=11	=11	=11	=11	=11
([4F\	.	[4F/	.	([4f/	.	[4f/	.
8F\L]	.	(8F/L]	.	8f/L]	.	(8f/L]	.
16G\L	.	16G/L	.	16g/L	.	16g/L	.
16F\JJ)	.	16F/JJ)	.	16f/JJ	.	16f/JJ)	.
8E'\L	.	8E'/L	.	8e'/L)	.	8e'/L	.
8F'\J	.	8F'/J	.	8f'/J	.	8f'/J	.
=12	=12	=12	=12	=12	=12	=12	=12
4D\	.	4D/	.	4d/	.	4d/	.
4r	.	4r	.	4r	.	4r	.
4r	.	4r	.	4r	.	4r	.
=13	=13	=13	=13	=13	=13	=13	=13
2.r	.	2.r	.	2.r	.	[4ff\	.
.	.	.	.	.	.	(8ff\L]	p
.	.	.	.	.	.	16gg\L	.
.	.	.	.	.	.	16ff\JJ)	.
.	.	.	.	.	.	8ee'\L	.
.	.	.	.	.	.	8ff'\J	.
=14	=14	=14	=14	=14	=14	=14	=14
2.c#\	p	2.b-\	p	2.ee\	p	(2aa\	.
.	.	.	.	.	.	4gg\)	.
=15	=15	=15	=15	=15	=15	=15	=15
2.r	.	2.r	.	2.r	.	[4gg\	.
.	.	.	.	.	.	(8gg\L]	.
.	.	.	.	.	.	16aa\L	.
.	.	.	.	.	.	16gg\JJ)	.
.	.	.	.	.	.	8ff#'\L	.
.	.	.	.	.	.	8gg'\J	.
=16	=16	=16	=16	=16	=16	=16	=16
2.f#\	.	2.ee-\	.	2.cc\	.	(2bb-\	.
.	.	.	.	.	.	4aa\)	.
=17	=17	=17	=17	=17	=17	=17	=17
2.r	.	2.r	.	2.r	.	[4aa\	.
.	.	.	.	.	.	(8aa\L]	.
.	.	.	.	.	.	16bb-\L	.
.	.	.	.	.	.	16aa\JJ)	.
.	.	.	.	.	.	8gg'\L	.
.	.	.	.	.	.	8aa'\J	.
=18	=18	=18	=18	=18	=18	=18	=18
4.B-\	.	(4.f#\	.	(4.ee-\	.	(4.ccc\	.
(8B-\L	.	8g\L	.	8dd\L	.	8bb-\L	.
8B-\	.	8a\)	.	8cc\	.	8aa\	.
8B-\J)	.	8b-\J	.	8b-\J)	.	8gg\J)	.
=19	=19	=19	=19	=19	=19	=19	=19
(2c\	.	(2cc\	.	(2a/	.	(2ff\	.
.	.	.	.	b-q/LL	.	ggq/LL	.
.	.	.	.	aq/	.	ffq/	.
.	.	.	.	gq/	.	eeq/	.
.	.	.	.	aq/JJ	.	ffq/JJ	.
4C/)	.	4e\)	.	8cc\L	.	8aa\L	.
.	.	.	.	8b-\J	.	8gg\J)	.
=20	=20	=20	=20	=20	=20	=20	=20
4F\	p	4f\	p	4a/)	p	4ff\	p
4r	.	4r	.	4r	.	4r	.
4r	.	4r	.	4r	.	4r	.
=21	=21	=21	=21	=21	=21	=21	=21
2.r	.	2.r	.	([4c/	.	2.r	.
.	.	.	.	8c/L]	.	.	.
.	.	.	.	16d/L	.	.	.
.	.	.	.	16c/JJ)	.	.	.
.	.	.	.	8Bn'/L	.	.	.
.	.	.	.	8c'/J	.	.	.
=22	=22	=22	=22	=22	=22	=22	=22
2.Bn\	.	2.a-\	.	(2e-/	.	(4.ff\	.
.	.	.	.	.	.	16gg\LL	.
.	.	.	.	.	.	16ff\JJ)	.
.	.	.	.	4d/)	.	8ee'\L	.
.	.	.	.	.	.	8ff'\J	.
=23	=23	=23	=23	=23	=23	=23	=23
2.r	.	2.r	.	([4d/	.	2.r	.
.	.	.	.	8d/L]	.	.	.
.	.	.	.	16e-/L	.	.	.
.	.	.	.	16d/JJ)	.	.	.
.	.	.	.	8c#'/L	.	.	.
.	.	.	.	8d'/J	.	.	.
=24	=24	=24	=24	=24	=24	=24	=24
2.C/	.	2.B-/	.	(2f/	.	(4.gg\	.
.	.	.	.	.	.	16aa\LL	.
.	.	.	.	.	.	16gg\JJ)	.
.	.	.	.	4en/)	.	8ff#'\L	.
.	.	.	.	.	.	8gg'\J	.
=25	=25	=25	=25	=25	=25	=25	=25
2.r	.	2.r	.	([4g/	.	2.r	.
.	.	.	.	8g/L]	.	.	.
.	.	.	.	16a/L	.	.	.
.	.	.	.	16g/JJ)	.	.	.
.	.	.	.	8f#'/L	.	.	.
.	.	.	.	8g'/J	.	.	.
=26	=26	=26	=26	=26	=26	=26	=26
2F\	.	2e-\	.	(2b-\	.	(4.ccc\	.
.	.	.	.	.	.	16ddd\LL	.
.	.	.	.	.	.	16ccc\JJ)	.
4FF/	.	4e-\	.	4a'/)	.	8bbn'\L	.
.	.	.	.	.	.	8ccc'\J	.
=27	=27	=27	=27	=27	=27	=27	=27
2B-\	.	(2f#\	.	(2cc\	.	(4.ddd\	.
.	.	.	.	.	.	16eee-\LL	.
.	.	.	.	.	.	16ddd\JJ)	.
4BB-/	.	4g'\)	.	4b-'\)	.	8ccc#'\L	.
.	.	.	.	.	.	8ddd'\J	.
=28	=28	=28	=28	=28	=28	=28	=28
4C'/	f	4B-'/	f	(8a/L	f	4eee'\	f
.	.	.	.	8g/)	.	.	.
4C'/	.	4B-'/	.	(8a/	.	4eee'\	.
.	.	.	.	8g/)	.	.	.
4C'/	.	4B-'/	.	(8a/	.	4eee'\	.
.	.	.	.	8g/J)	.	.	.
=29	=29	=29	=29	=29	=29	=29	=29
4FF/	.	8A/L	.	8f/L	.	4fff\	.
.	.	8c/J	p	8A/ 8f/	p	.	.
4r	.	8c\L	.	8A/ 8f/	.	4r	.
.	.	8c\	.	8A/ 8f/	.	.	.
4r	.	8c\	.	8A/ 8f/	.	4r	.
.	.	8c\J	.	8A/J 8f/	.	.	.
=30	=30	=30	=30	=30	=30	=30	=30
(4.C/	.	8c\L	.	2.A/ 2.f/	.	4r	.
.	.	8c\	.	.	.	.	.
.	.	8c\	.	.	.	8r	.
16D/LL	p	8c\	.	.	.	8a/	p
16C/JJ)	.	.	.	.	.	.	.
8BBn'/L	.	8c\	.	.	.	4a/	.
8C'/J	.	8c\J	.	.	.	.	.
=31	=31	=31	=31	=31	=31	=31	=31
.	.	.	.	.	.	gq/LL	.
.	.	.	.	.	.	aq/JJ	.
4CC/	.	2.c\	.	2.G/ 2.e/	.	(4.cc\	.
4r	.	.	.	.	.	.	.
.	.	.	.	.	.	8b-/L)	.
4r	.	.	.	.	.	8g'/	.
.	.	.	.	.	.	8f'/J	.
=32	=32	=32	=32	=32	=32	=32	=32
4.C/	.	2.c\	.	2.G/ 2.e/	.	4e/	.
.	.	.	.	.	.	8r	.
16D/LL	.	.	.	.	.	8b-\	.
16C/JJ	.	.	.	.	.	.	.
8BBn'/L	.	.	.	.	.	4b-\	.
8C'/J	.	.	.	.	.	.	.
=33	=33	=33	=33	=33	=33	=33	=33
.	.	.	.	.	.	aq/LL	.
.	.	.	.	.	.	b-q/JJ	.
4CC/	.	2.c\	.	2.A/ 2.f/	.	(4.dd\	.
4r	.	.	.	.	.	.	.
.	.	.	.	.	.	8cc/L)	.
4r	.	.	.	.	.	8a'/	.
.	.	.	.	.	.	8g'/J	.
=34	=34	=34	=34	=34	=34	=34	=34
(4.C/	.	2.c\	.	2.A/ 2.f/	.	4f/	.
.	.	.	.	.	.	8r	.
16D/LL	.	.	.	.	.	8ff\	.
16C/JJ)	.	.	.	.	.	.	.
8BBn'/L	.	.	.	.	.	4ff\	.
8C'/J	.	.	.	.	.	.	.
=35	=35	=35	=35	=35	=35	=35	=35
.	.	.	.	.	.	eeq/LL	.
.	.	.	.	.	.	ffq/JJ	.
4CC/	.	2.e\	.	2.B-/ 2.g/	.	(4.aa\	.
4r	.	.	.	.	.	.	.
.	.	.	.	.	.	8gg\L)	.
4r	.	.	.	.	.	8gg'\	.
.	.	.	.	.	.	8ff'\J	.
=36	=36	=36	=36	=36	=36	=36	=36
(4.C/	.	2.e\	.	2.B-/ 2.g/	.	(8ff\L	.
.	.	.	.	.	.	8ee\J)	.
.	.	.	.	.	.	8ee'\L	.
16D/LL	.	.	.	.	.	8dd'\	.
16C/JJ)	.	.	.	.	.	.	.
8BBn'/L	.	.	.	.	.	8cc'\	.
8C'/J	.	.	.	.	.	8b-'\J	.
=37	=37	=37	=37	=37	=37	=37	=37
4C#'/	.	8e\L	.	2.A/ 2.g/	.	[2.a/	.
.	.	8e\	.	.	.	.	.
4AA'/	.	8c#\	.	.	.	.	.
.	.	8c#\	.	.	.	.	.
4C#'/	.	8e\	.	.	.	.	.
.	.	8e\J	.	.	.	.	.
=38	=38	=38	=38	=38	=38	=38	=38
4D\	.	8d\L	.	2.A/ 2.f/	.	8a\L]	.
.	.	8d\	.	.	.	(16bn\L	.
.	.	.	.	.	.	16cc#\JJ	.
4r	.	8d\	.	.	.	16dd\LL	.
.	.	.	.	.	.	16ee\	.
.	.	8d\	.	.	.	16ff\	.
.	.	.	.	.	.	16ee\JJ	.
4r	.	8d\	.	.	.	16dd\LL	.
.	.	.	.	.	.	16ccn\	.
.	.	8d\J	.	.	.	16b\	.
.	.	.	.	.	.	16a\JJ)	.
=39	=39	=39	=39	=39	=39	=39	=39
4BBn/	.	8d\L	.	2.G/ 2.f/	.	[2.g/	.
.	.	8d\	.	.	.	.	.
4GG'/	.	8Bn\	.	.	.	.	.
.	.	8B\	.	.	.	.	.
4BB'/	.	8d\	.	.	.	.	.
.	.	8d\J	.	.	.	.	.
=40	=40	=40	=40	=40	=40	=40	=40
4C/	.	8c\L	.	2.G/ 2.e-/	.	8g/L]	.
.	.	8c\	.	.	.	(16a/L	.
.	.	.	.	.	.	16bn/JJ	.
4r	.	8c\	.	.	.	16cc\LL	.
.	.	.	.	.	.	16b\	.
.	.	8c\	.	.	.	16cc\	.
.	.	.	.	.	.	16b\JJ	.
4r	.	8c\	.	.	.	16cc\LL	.
.	.	.	.	.	.	16b\	.
.	.	8c\J	.	.	.	16cc\	.
.	.	.	.	.	.	16b\JJ)	.
=41	=41	=41	=41	=41	=41	=41	=41
[2.AA-/	pp	(4.E-/	pp	[2.c/ [2.e-/	pp	[2.cc\	pp
.	.	16F/LL	.	.	.	.	.
.	.	16E-/JJ)	.	.	.	.	.
.	.	8D'/L	.	.	.	.	.
.	.	8E-'/J	.	.	.	.	.
=42	=42	=42	=42	=42	=42	=42	=42
2.AA/]	.	2.E-/	.	4c/] 4e/]	.	(4.cc\]	.
.	.	.	.	(4c'/	.	.	.
.	.	.	.	.	.	16dd-\LL	.
.	.	.	.	.	.	16cc\JJ)	.
.	.	.	.	4c'/)	.	8b-'\L	.
.	.	.	.	.	.	8cc'\J	.
=43	=43	=43	=43	=43	=43	=43	=43
[2.BB-/	.	(4.E-/	.	(2.d-/	.	(4.ee-\	.
.	.	16F/LL	.	.	.	8dd-\L)	.
.	.	16E-/JJ	.	.	.	.	.
.	.	8D'/L)	.	.	.	8b-'\	.
.	.	8E-'/J	.	.	.	8a-'\J	.
=44	=44	=44	=44	=44	=44	=44	=44
2.BB-/]	.	2.E-/	.	4d/)	.	4g/	.
.	.	.	.	(4d-'/	.	8r	.
.	.	.	.	.	.	(16ee-\LL	.
.	.	.	.	.	.	16dd-\JJ)	.
.	.	.	.	4d-'/)	.	8cc'\L	.
.	.	.	.	.	.	8dd-'\J	.
=45	=45	=45	=45	=45	=45	=45	=45
[2.C/	.	(4.E-/	.	[2.e-/	.	(4.ff\	.
.	.	16F/LL	.	.	.	8ee-\)	.
.	.	16E-/JJ	.	.	.	.	.
.	.	8D'/L)	.	.	.	8cc'\L	.
.	.	8E-'/J	.	.	.	8b-'\J	.
=46	=46	=46	=46	=46	=46	=46	=46
4C'/]	.	4E-/	.	4e/]	.	4a/	.
4C'/	.	4a\	.	(4g-'/	.	8r	.
.	.	.	.	.	.	(16ff\LL	.
.	.	.	.	.	.	16ee-\JJ)	.
4C'/	.	4a\	.	4g-'/)	.	8dd'\L	.
.	.	.	.	.	.	8ee-'\J	.
=47	=47	=47	=47	=47	=47	=47	=47
2.D\	.	2.Bn/	.	2.a-/	.	2.ff\	.
=48	=48	=48	=48	=48	=48	=48	=48
4E-'\	f	4c'\	f	4g'/	f	4ee-'\	f
4F'\	.	4f'\	.	4a-'/	.	4dd'\	.
4F#'\	.	4e-'\	.	4an'/	.	4cc'\	.
=49	=49	=49	=49	=49	=49	=49	=49
4G\	.	4d\	.	4g/	.	16bn/LL	.
.	.	.	.	.	.	16g'/	p
.	.	.	.	.	.	16a'/	.
.	.	.	.	.	.	16b'/JJ	.
4r	.	8r	.	8r	.	16cc'\LL	.
.	.	.	.	.	.	16dd'\	.
.	.	8Bn'/L	p	8d'/L	p	16ee'\	.
.	.	.	.	.	.	16ff#'\JJ	.
4r	.	8B'/	.	8d'/	.	16gg'\LL	.
.	.	.	.	.	.	16ff#'\	.
.	.	8c'/J	.	8e-'/J	.	16gg'\	.
.	.	.	.	.	.	16ff#'\JJ	.
=50	=50	=50	=50	=50	=50	=50	=50
16G'/LL	.	4B-/	.	4d/	.	4gg\	.
16GG'/	.	.	.	.	.	.	.
16AA'/	.	.	.	.	.	.	.
16BB-'/JJ	.	.	.	.	.	.	.
16C'\LL	.	8r	.	8r	.	8r	.
16D'\	.	.	.	.	.	.	.
16E'\	.	8g'\L	.	8dd'\L	.	8bbn'\L	.
16F#'\JJ	.	.	.	.	.	.	.
16G'\LL	.	8g'\	.	8dd'\	.	8bb'\	.
16F#'\	.	.	.	.	.	.	.
16G'\	.	8g'\J	.	8ee-'\J	.	8ccc'\J	.
16F#'\JJ	.	.	.	.	.	.	.
=51	=51	=51	=51	=51	=51	=51	=51
4G\	.	4g\	.	4dd\	.	16bbn\LL	.
.	.	.	.	.	.	16g\	.
.	.	.	.	.	.	16a\	.
.	.	.	.	.	.	16bn\JJ	.
4r	.	8r	.	8r	.	16cc\LL	.
.	.	.	.	.	.	16dd\	.
.	.	8Bn'/L	.	8d'/L	.	16ee\	.
.	.	.	.	.	.	16ff#\JJ	.
4r	.	8B'/	.	8d'/	.	16gg\LL	.
.	.	.	.	.	.	16ff#\	.
.	.	8c'/J	.	8e-'/J	.	16gg\	.
.	.	.	.	.	.	16ff#\JJ	.
=52	=52	=52	=52	=52	=52	=52	=52
16G'/LL	.	4Bn/	.	4d/	.	4gg\	.
16GG'/	.	.	.	.	.	.	.
16AA'/	.	.	.	.	.	.	.
16BBn'/JJ	.	.	.	.	.	.	.
16C\LL	.	8r	.	8r	.	8r	.
16D'\	.	.	.	.	.	.	.
16E'\	.	8g'\L	.	8dd'\L	.	8bbn'\L	.
16F#'\JJ	.	.	.	.	.	.	.
16G'\LL	.	8g'\	.	8dd'\	.	8bb'\	.
16F#'\	.	.	.	.	.	.	.
16G'\	.	8g'\J	.	8ee-'\J	.	8ccc'\J	.
16F#'\JJ	.	.	.	.	.	.	.
=53	=53	=53	=53	=53	=53	=53	=53
4G\	.	4g\	.	4dd\	.	8bbn\	.
.	.	.	.	.	.	16G/LL	.
.	.	.	.	.	.	16A/	.
8r	.	8r	.	8r	.	16Bn/JJ	.
.	.	.	.	.	.	16c/LL	.
8G'\L	.	8Bn'/L	.	8dd'\L	.	16d/	.
.	.	.	.	.	.	16e/	.
8G'\	.	8B'/	.	8dd'\	.	16f#/JJ	.
.	.	.	.	.	.	16g/LL	.
8C'\J	.	8c'/J	.	8ee-'\J	.	16f#/	.
.	.	.	.	.	.	16g/JJ	.
=54	=54	=54	=54	=54	=54	=54	=54
16G'/LL	ff	16Bn/LL	ff	16dd/LL	ff	16g/LL	ff
16GG'/	.	16G/	.	16G/	.	16g/	.
16AA'/	.	16A/	.	16A/	.	16a/	.
16BBn'/JJ	.	16B/JJ	.	16Bn/JJ	.	16bn\JJ	.
16C'\LL	.	16c\LL	.	16c/LL	.	16cc\LL	.
16D'\	.	16d\	.	16d/	.	16dd\	.
16E\	.	16e\	.	16e/	.	16ee\	.
16F#'\JJ	.	16f#\JJ	.	16f#/JJ	.	16ff#\JJ	.
16G\LL	.	16g\LL	.	16g/LL	.	16gg\LL	.
16F#'\	.	16f#\	.	16f#/	.	16ff#\	.
16G'\	.	16g\	.	16g/	.	16gg\	.
16F#'\JJ	.	16f#\JJ	.	16f#/JJ	.	16ff#\JJ	.
=55	=55	=55	=55	=55	=55	=55	=55
4G\	.	4g\	.	4g/	.	8gg\	.
.	.	.	.	.	.	4gg\	.
4r	.	4r	.	4r	.	.	.
.	.	.	.	.	.	4gg\	.
4r	.	4r	.	4r	.	.	.
.	.	.	.	.	.	[8gg\	.
=56	=56	=56	=56	=56	=56	=56	=56
2.r	.	2.r	.	2.r	.	8gg#\]	.
.	.	.	.	.	.	4gg#\	.
.	.	.	.	.	.	4gg#\	.
.	.	.	.	.	.	(8gg#\	.
=57	=57	=57	=57	=57	=57	=57	=57
2.r	.	2.r	.	2.r	.	8aa\)	.
.	.	.	.	.	.	(8aa\L	p
.	.	.	.	.	.	8ff\J)	.
.	.	.	.	.	.	(8ff\L	.
.	.	.	.	.	.	8dd\J)	.
.	.	.	.	.	.	(8dd\	.
=58	=58	=58	=58	=58	=58	=58	=58
2.r	.	4r	.	4r	.	8bn\)	.
.	.	.	.	.	.	(8b/L	.
.	.	4r	.	4r	.	8g/J)	.
.	.	.	.	.	.	(8g/L	.
.	.	8f'\L	.	8g'/L	.	8b/J)	.
.	.	8f\J	p	[8g/J	p	(8b\	.
=59	=59	=59	=59	=59	=59	=59	=59
2.r	.	(8e\	.	8g/]	.	8cc\)	.
.	.	8e\L	.	(8g/L	.	(8cc\L	.
.	.	(8d\J)	.	(8bn/J)	.	8dd\J)	.
.	.	8d\L)	.	8b\L	.	(8dd\L	.
.	.	8c\J	.	8cc\J)	.	8ee\J)	.
.	.	8c\	.	8cc\	.	(8ee\	.
=60	=60	=60	=60	=60	=60	=60	=60
2.r	.	2Bn/	.	4ee\	.	4gg\	.
.	.	.	.	4dd\	.	4ff\)	.
.	.	(8e'\L	.	4r	.	4r	.
.	.	8e\J	.	.	.	.	.
=61	=61	=61	=61	=61	=61	=61	=61
2.r	.	(8f\)	.	2.r	.	2.r	.
.	.	8f\L	.	.	.	.	.
.	.	8d\J)	.	.	.	.	.
.	.	(8d\L	.	.	.	.	.
.	.	8Bn\J)	.	.	.	.	.
.	.	(8B/	.	.	.	.	.
=62	=62	=62	=62	=62	=62	=62	=62
2.r	.	8G#/)	.	4r	.	4r	.
.	.	(8G#/L	.	.	.	.	.
.	.	(8e/J)	.	4r	.	4r	.
.	.	8e\L	.	.	.	.	.
.	.	8d\J)	.	4bn\	.	4gg#\	.
.	.	(8d\	.	.	.	.	.
=63	=63	=63	=63	=63	=63	=63	=63
2.r	.	8c\)	.	4ee\	.	4aa\	.
.	.	(8c/L	.	.	.	.	.
.	.	8A/J)	.	4e/	.	4ccc\	.
.	.	(8A/L	.	.	.	.	.
.	.	8d/J)	.	[4cc\)	.	4ff#\)	.
.	.	(8d\	.	.	.	.	.
=64	=64	=64	=64	=64	=64	=64	=64
4r	.	8G/)	.	4cc\]	.	4aa\	.
.	.	(8G\L	.	.	.	.	.
8r	.	8g\J)	.	8b-\	.	&(8gg\&)	.
8F#\L	p	8r	.	8r	.	8r	.
8G\	.	4r	.	4r	.	4r	.
8G#\J	.	.	.	.	.	.	.
=65	=65	=65	=65	=65	=65	=65	=65
8A'\)	.	2.r	.	2.r	.	2.r	.
&(8A\L&)	.	.	.	.	.	.	.
8F\J	.	.	.	.	.	.	.
8F\L	.	.	.	.	.	.	.
&(8D\J&)	.	.	.	.	.	.	.
8D\	.	.	.	.	.	.	.
=66	=66	=66	=66	=66	=66	=66	=66
&(8BBn/&)	.	4r	.	4r	.	4r	.
8BB/L	.	.	.	.	.	.	.
&(8GG/J&)	.	4r	.	4r	.	4r	.
8GG/L	.	.	.	.	.	.	.
&(8BB/J&)	.	8G'/L	.	8d'/L	.	8ff'\L	.
8BB/	.	[8G/J	.	8d/J	.	8ff\J	.
=67	=67	=67	=67	=67	=67	=67	=67
&(8C/&)	.	8G/]	.	8e/	.	&(8ee\&)	.
8C/L	.	(8g\L	.	8cc\L	.	8ee\L	.
&(8D/J&)	.	8f\J)	.	8b-\J	.	&(8dd\J&)	.
8D\L	.	(8f\L	.	8b-/L	.	8dd\L	.
&(8E\J&)	.	8e\J)	.	8g/J	.	&(8cc\J&)	.
8E\	.	8e\	.	8g/	.	8cc'\	.
=68	=68	=68	=68	=68	=68	=68	=68
4.F\	.	4.d\	.	4.a-/	.	4cc\	.
.	.	.	.	.	.	&(8bn\&)	.
8r	.	8r	.	8r	.	8r	.
4r	.	4r	.	8g'/L	.	4r	.
.	.	.	.	8g/J	.	.	.
=69	=69	=69	=69	=69	=69	=69	=69
2.r	.	4r	.	8a-/	.	4r	.
.	.	.	.	8a-/L	.	.	.
.	.	8a-'\	.	8f/J	.	4r	.
.	.	(8a-\L	.	8f/L	.	.	.
.	.	8f\J)	.	8d/J	.	[4aa-\	.
.	.	(8f\	.	8d/	.	.	.
=70	=70	=70	=70	=70	=70	=70	=70
2.r	.	8d\)	.	8Bn/L	.	4aa-\]	.
.	.	(8d\L	.	8B/J	.	.	.
.	.	8e-\J)	.	8c/	.	4gg\	.
.	.	(8c/L	.	4ee\	.	.	.
.	.	8F#/J)	.	.	.	&(4ccc\&)	.
.	.	(8F#/	.	8ee-'\	.	.	.
=71	=71	=71	=71	=71	=71	=71	=71
2.r	.	8G/)	.	2ee-\	.	2ccc\	.
.	.	(8G\L	.	.	.	.	.
.	.	8g\J)	.	.	.	.	.
.	.	(8g\L	.	.	.	.	.
.	.	8G\J)	.	8.ff\L	.	8.ddd\L	.
.	.	8G/	.	.	.	.	.
.	.	.	.	16dd\Jk	.	&(16bbn\Jk&)	.
=72	=72	=72	=72	=72	=72	=72	=72
*clefC4	*clefG2	*	*	*	*	*	*
4.g\	.	8c\	p	8cc/L	p	4ccc\	.
.	.	8C/L	.	8G/J 8e/	.	.	.
.	.	8C/	.	8G/L 8e/	.	4r	.
16a\LL	p	8C/	.	8G/ 8e/	.	.	.
&(16g\JJ&)	.	.	.	.	.	.	.
8f#'\L	.	8C/	.	8G/ 8e/	.	4r	.
8g'\J	.	8C/J	.	8G/J 8e/	.	.	.
=73	=73	=73	=73	=73	=73	=73	=73
2.g\	.	8C/L	.	8G/L 8e/	.	4.ee\	.
.	.	8C/	.	8G/J 8e/	.	.	.
.	.	8C/	.	8G/L 8e/	.	.	.
.	.	8C/	.	8G/J 8e/	.	16ff\LL	p
.	.	.	.	.	.	&(16ee\JJ&)	.
.	.	8C/	.	8G/L 8e/	.	8dd'\L	.
.	.	8C/J	.	8G/J 8e/	.	8cc'\J	.
=74	=74	=74	=74	=74	=74	=74	=74
4.g\	.	2.D/	.	2.G/ 2.f/	.	4bn\	.
.	.	.	.	.	.	4r	.
16a\LL	.	.	.	.	.	.	.
&(16g\JJ&)	.	.	.	.	.	.	.
8f#'\L	.	.	.	.	.	4r	.
8g'\J	.	.	.	.	.	.	.
=75	=75	=75	=75	=75	=75	=75	=75
2.g\	.	2.D/ 2.G/	.	2.Bn/	.	4.ff\	.
.	.	.	.	.	.	16gg\LL	.
.	.	.	.	.	.	&(16ff\JJ&)	.
.	.	.	.	.	.	8ee'\L	.
.	.	.	.	.	.	8dd'\J	.
=76	=76	=76	=76	=76	=76	=76	=76
4.g\	.	2.E/ 2.G/	.	2.B-/	.	4cc#\	.
.	.	.	.	.	.	4r	.
16a\LL	.	.	.	.	.	.	.
&(16g\JJ&)	.	.	.	.	.	.	.
8f#'\L	.	.	.	.	.	4r	.
8g'\J	.	.	.	.	.	.	.
=77	=77	=77	=77	=77	=77	=77	=77
2.b-\	f	2.E/	f	2.G/ 2.g/	.	[4bb-\	f
.	.	.	.	.	.	8bb-\L]	.
.	.	.	.	.	.	16aa\L	.
.	.	.	.	.	.	16gg\JJ	.
.	.	.	.	.	.	16ff\LL	.
.	.	.	.	.	.	16ee\	.
.	.	.	.	.	.	16dd\	.
.	.	.	.	.	.	&(16cc#\JJ&)	.
=78	=78	=78	=78	=78	=78	=78	=78
4a\	.	4F'/	.	4A'/	.	16dd'\LL	.
.	.	.	.	.	.	16a'\	.
.	.	.	.	.	.	16b-'\	.
.	.	.	.	.	.	16cc#'\JJ	.
*clefF4	*clefF4	*	*	*	*	*	*
4F\	.	4d'\	.	4f'/ 4a'/	.	16dd\LL	.
.	.	.	.	.	.	16ee'\	.
.	.	.	.	.	.	16ff'\	.
.	.	.	.	.	.	16ee'\JJ	.
4r	.	4r	.	4r	.	16dd'\LL	.
.	.	.	.	.	.	16a'\	.
.	.	.	.	.	.	16b-'\	.
.	.	.	.	.	.	16cc#'\JJ	.
=79	=79	=79	=79	=79	=79	=79	=79
2.r	.	2.r	.	2.r	.	16dd\LL	.
.	.	.	.	.	.	16ee\	.
.	.	.	.	.	.	16ff\	.
.	.	.	.	.	.	16ee\JJ	.
.	.	.	.	.	.	16dd\LL	.
.	.	.	.	.	.	16a\	.
.	.	.	.	.	.	16bn\	.
.	.	.	.	.	.	16cc#\JJ	.
.	.	.	.	.	.	16dd\LL	.
.	.	.	.	.	.	16ee\	.
.	.	.	.	.	.	16ff\	.
.	.	.	.	.	.	16ee\JJ	.
=80	=80	=80	=80	=80	=80	=80	=80
4r	.	4r	.	4r	.	16dd\LL	.
.	.	.	.	.	.	16a\	.
.	.	.	.	.	.	16b-\	.
.	.	.	.	.	.	16cc#\JJ	.
4r	.	4r	.	4r	.	16dd\LL	.
.	.	.	.	.	.	16ee\	.
.	.	.	.	.	.	16ff\	.
.	.	.	.	.	.	16ee\JJ	.
16r	.	16r	.	16r	.	16dd\LL	.
16AA/LL	.	16A/LL	.	16A/LL	.	16a\	.
16BBn/	.	16Bn/	.	16Bn/	.	16b-\	.
16C#/JJ	.	16c#/JJ	.	16c#/JJ	.	16cc#\JJ	.
=81	=81	=81	=81	=81	=81	=81	=81
16D\LL	.	16d\LL	.	16d/LL	.	16dd\LL	.
16E\	.	16e\	.	16e/	.	16ee\	.
16F\	.	16f\	.	16f/	.	16ff\	.
16G\JJ	.	16g\JJ	.	16g/JJ	.	16gg\JJ	.
16A\LL	.	16a\LL	.	16a/LL	.	16aa\LL	.
16G\	.	16g\	.	16g/	.	16gg\	.
16F\	.	16f\	.	16f/	.	16ff\	.
16E\JJ	.	16e\JJ	.	16e/JJ	.	16ee\JJ	.
16D/LL	.	16d/LL	.	16d/LL	.	16dd\LL	.
16C/	.	16c/	.	16c/	.	16cc\	.
16BBn/	.	16Bn/	.	16A/	.	16bn\	.
16AA/JJ	.	16A/JJ	.	16Bn/JJ	.	16a\JJ	.
=82	=82	=82	=82	=82	=82	=82	=82
4.GG/	.	4.G/	.	4.G/	f	2.g/	.
16AA/LL	f	(16A/LL	f	16A/LL	.	.	.
16BBn/JJ	.	16Bn/JJ	.	16Bn/JJ	.	.	.
16C\LL	.	16c\LL	.	16c/LL	.	.	.
16D\	.	16d\	.	16d/	.	.	.
16E\	.	16e\	.	16e/	.	.	.
16F#\JJ	.	16f#\JJ)	.	16f#/JJ	.	.	.
=83	=83	=83	=83	=83	=83	=83	=83
&(8G\L&)	.	8g\L	.	8g/L	.	2.dd\	f
8G\	.	8f\	.	8bn/	.	.	.
8G\	.	8f\	.	8b/	.	.	.
8G\	.	8f\	.	8b/	.	.	.
8G\	.	8f\	.	8b/	.	.	.
8G\J	.	8f\J	.	8b/J	.	.	.
=84	=84	=84	=84	=84	=84	=84	=84
.	.	.	.	.	.	ccq/LL	.
.	.	.	.	.	.	&(ddq/JJ&)	.
4C'/	.	4e\	.	4cc\	.	4cc\	.
4r	.	(4.E/	.	4.G/	.	4.c/	.
4r	.	.	.	.	.	.	.
.	.	8D/)	.	8G/	.	&(8Bn/&)	.
=85	=85	=85	=85	=85	=85	=85	=85
2.r	.	(8D/L	.	8G/L	.	8Bn/L	.
.	.	8Bn/)	.	8d/J	.	&(8f/J&)	.
.	.	(8B/	.	8d/L	.	8f/L	.
.	.	8c/)	.	8c/J	.	&(8e/J&)	.
.	.	(8c/	.	8c/L	.	8e/L	.
.	.	8F/J)	.	8c/J	.	&(8a/J&)	.
=86	=86	=86	=86	=86	=86	=86	=86
2.r	.	(8F/L	.	8c/L	.	8a/L	.
.	.	8E/)	.	8c/	.	&(8g/J&)	.
.	.	(8E/	.	8c/	.	8g/L	.
.	.	8e/)	.	8g/	.	&(8cc/J&)	.
.	.	(8e/	.	8g/	.	8cc\L	.
.	.	8d/J)	.	8f/J	.	&(8bn\J&)	.
=87	=87	=87	=87	=87	=87	=87	=87
2.r	.	(8d\L	.	8f/L	.	8bn\L	.
.	.	8Bn\J)	.	8d/J	.	&(8ff\J&)	.
.	.	4B/	.	4d/	.	4ff\	.
.	.	4r	.	4r	.	4r	.
=88	=88	=88	=88	=88	=88	=88	=88
2.r	.	2.r	.	2.r	.	2.r	.
=89	=89	=89	=89	=89	=89	=89	=89
2.c\	.	2.g\	.	2.cc\	.	4.ee\	.
.	.	.	.	.	.	16ff\LL	p
.	.	.	.	.	.	&(16ee\JJ&)	.
.	.	.	.	.	.	8dd'\L	.
.	.	.	.	.	.	8ee'\J	.
=90	=90	=90	=90	=90	=90	=90	=90
[2.F#\	p	[2.d\	p	[2.cc\	p	[2.aa\	.
=91	=91	=91	=91	=91	=91	=91	=91
4F#\]	.	(4d\]	.	4cc\]	.	4aa\]	.
&(4G'\&)	.	4e'\)	.	4cc'\	.	&(4gg'\&)	.
4GG'/	.	4d'\	.	4f'/	.	4bn'\	.
=92	=92	=92	=92	=92	=92	=92	=92
4C'/	.	4c'\	.	4e'/	.	4cc'\	.
4r	.	(4.e\	.	4.g/	.	4.cc\	.
4r	.	.	.	.	.	.	.
.	.	8d\)	.	8f/	.	&(8bn\&)	.
=93	=93	=93	=93	=93	=93	=93	=93
2.r	.	(8d\L	.	8f/L	.	8bn\L	.
.	.	8Bn\)	.	8d/	.	&(8ff\&)	.
.	.	(8B\	.	8d/	.	8ff\	.
.	.	(8c\)	.	8e/	.	&(8ee\&)	.
.	.	8c\	.	8e/	.	8ee\	.
.	.	8f\J)	.	8cc/J	.	&(8aa\J&)	.
=94	=94	=94	=94	=94	=94	=94	=94
2.r	.	(8f\L	.	8cc'\L	.	8aa\L	.
.	.	8e\)	.	8cc'\	.	&(8gg\&)	.
.	.	(8e\	.	8cc\	.	8gg\	.
.	.	8ee\)	.	8gg\	.	&(8ccc\&)	.
.	.	(8ee\	.	8gg\	.	8ccc\	.
.	.	8dd\J)	.	8ff\J	.	&(8bbn\J&)	.
=95	=95	=95	=95	=95	=95	=95	=95
2.r	.	(8dd\L	.	8ff\L	.	8bbn\L	.
.	.	8bn\J)	.	8dd\J	.	&(8fff\J&)	.
.	.	4b\	.	4dd\	.	4fff\	.
.	.	4r	.	4r	.	4r	.
=96	=96	=96	=96	=96	=96	=96	=96
2.r	.	2.r	.	2.r	.	2.r	.
=97	=97	=97	=97	=97	=97	=97	=97
2.C/	.	2.c\	.	2.G/	.	2.c/ 2.e-/	.
=98	=98	=98	=98	=98	=98	=98	=98
2.AA-/	.	2.A-/	.	2.A-/	.	2.c/ 2.e-/	.
=99	=99	=99	=99	=99	=99	=99	=99
2FF#/	.	2F#/	.	2A/	.	2c/ 2e-/	.
4FFn/	.	4Fn/	.	4A/	.	4c/ 4e-/	.
=100	=100	=100	=100	=100	=100	=100	=100
4EE'/	.	4E/	.	4A'/	.	4c/ 4e/	.
4DD'/	ff	(4A'/	ff	4d'/	ff	4f'/	ff
4GG'/	.	4F'/)	.	4Bn'/	.	&(4d'/&)	.
=101	=101	=101	=101	=101	=101	=101	=101
4.C/	.	8E/L	p	8c/L	.	4c/	.
.	.	8c/	.	8G/ 8e/	p	.	.
.	.	8c/	.	8G/ 8e/	.	4r	.
16D/LL	p	8c/	.	8G/ 8e/	.	.	.
&(16C/JJ&)	.	.	.	.	.	.	.
8BBn'/L	.	8c/	.	8G/ 8e/	.	4r	.
8C'/J	.	8c/J	.	8G/J 8e/	.	.	.
=102	=102	=102	=102	=102	=102	=102	=102
4CC/	.	2.c\	.	2.G/ 2.e/	.	4r	.
4r	.	.	.	.	.	4ee\	p
4r	.	.	.	.	.	4ee\	.
=103	=103	=103	=103	=103	=103	=103	=103
.	.	.	.	.	.	ddq/LL	.
.	.	.	.	.	.	eeq/JJ	.
4.C/	.	2.d\	.	2.G/ 2.f/	.	4gg\	.
.	.	.	.	.	.	&(4ff\&)	.
16D/LL	.	.	.	.	.	.	.
&(16C/JJ&)	.	.	.	.	.	.	.
8BBn'/L	.	.	.	.	.	4r	.
8C'/J	.	.	.	.	.	.	.
=104	=104	=104	=104	=104	=104	=104	=104
4CC/	.	2.d\	.	2.G/ 2.f/	.	4r	.
4r	.	.	.	.	.	4bbn\	.
4r	.	.	.	.	.	4bb\	.
=105	=105	=105	=105	=105	=105	=105	=105
.	.	.	.	.	.	aaq/LL	.
.	.	.	.	.	.	bbq/JJ	.
16D/LL	.	2.c\	.	2.G/ 2.e/	.	8ccc\L	.
16C/	.	.	.	.	.	.	.
16BBn/	.	.	.	.	.	&(8eee\J&)	.
&(16C/JJ&)	.	.	.	.	.	.	.
16D/LL	.	.	.	.	.	4gg\	.
16C/	.	.	.	.	.	.	.
16BB/	.	.	.	.	.	.	.
&(16C/JJ&)	.	.	.	.	.	.	.
16D/LL	.	.	.	.	.	4r	.
16C/	.	.	.	.	.	.	.
16BB/	.	.	.	.	.	.	.
&(16C/JJ&)	.	.	.	.	.	.	.
=106	=106	=106	=106	=106	=106	=106	=106
4CC/	.	2.c\	.	2.G/ 2.e/	.	16ff\LL	.
.	.	.	.	.	.	16ee\	.
.	.	.	.	.	.	16dd\	.
.	.	.	.	.	.	&(16ee\JJ&)	.
4r	.	.	.	.	.	16ff\LL	.
.	.	.	.	.	.	16ee\	.
.	.	.	.	.	.	16dd\	.
.	.	.	.	.	.	&(16ee\JJ&)	.
4r	.	.	.	.	.	16ff\LL	.
.	.	.	.	.	.	16ee\	.
.	.	.	.	.	.	16dd\	.
.	.	.	.	.	.	&(16ee\JJ&)	.
=107	=107	=107	=107	=107	=107	=107	=107
16D/LL	.	2.d\	.	2.G/ 2.f/	.	4gg\	.
16C/	.	.	.	.	.	.	.
16BBn/	.	.	.	.	.	.	.
&(16C/JJ&)	.	.	.	.	.	.	.
16D/LL	.	.	.	.	.	&(4ff\&)	.
16C/	.	.	.	.	.	.	.
16BB/	.	.	.	.	.	.	.
&(16C/JJ&)	.	.	.	.	.	.	.
16D/LL	.	.	.	.	.	4r	.
16C/	.	.	.	.	.	.	.
16BB/	.	.	.	.	.	.	.
&(16C/JJ&)	.	.	.	.	.	.	.
=108	=108	=108	=108	=108	=108	=108	=108
4CC/	.	2.d\	.	2.G/ 2.f/	.	16ccc\LL	.
.	.	.	.	.	.	16bbn\	.
.	.	.	.	.	.	16aa\	.
.	.	.	.	.	.	&(16bb\JJ&)	.
4r	.	.	.	.	.	16ccc\LL	.
.	.	.	.	.	.	16bb\	.
.	.	.	.	.	.	16aa\	.
.	.	.	.	.	.	&(16bb\JJ&)	.
4r	.	.	.	.	.	16ccc\LL	.
.	.	.	.	.	.	16bb\	.
.	.	.	.	.	.	16aa\	.
.	.	.	.	.	.	&(16bb\JJ&)	.
=109	=109	=109	=109	=109	=109	=109	=109
4C'/	.	4c'\	.	4G'/ 4e'/	.	16ccc'\LL	.
.	.	.	.	.	.	16eee'\	.
.	.	.	.	.	.	16ddd'\	.
.	.	.	.	.	.	16ccc'\JJ	.
4C'/	.	4G'/ 4e'/	.	4G'/ 4e'/ 4cc'/	.	16bb-'\LL	.
.	.	.	.	.	.	16aa'\	.
.	.	.	.	.	.	16gg'\	.
.	.	.	.	.	.	16ff'\JJ	.
4r	.	4r	.	4r	.	16ee'\LL	.
.	.	.	.	.	.	16ccc'\	.
.	.	.	.	.	.	16bb-'\	.
.	.	.	.	.	.	16aa'\JJ	.
=110	=110	=110	=110	=110	=110	=110	=110
2.r	.	2.r	.	2.r	.	16gg\LL	.
.	.	.	.	.	.	16ff\	.
.	.	.	.	.	.	16ee\	.
.	.	.	.	.	.	16dd\JJ	.
.	.	.	.	.	.	16cc\LL	.
.	.	.	.	.	.	16gg\	.
.	.	.	.	.	.	16ff\	.
.	.	.	.	.	.	16ee\JJ	.
.	.	.	.	.	.	16dd\LL	.
.	.	.	.	.	.	16cc\	.
.	.	.	.	.	.	16bn\	.
.	.	.	.	.	.	16a\JJ	.
=111	=111	=111	=111	=111	=111	=111	=111
4r	.	4r	.	4r	.	16g\LL	.
.	.	.	.	.	.	16ee\	.
.	.	.	.	.	.	16dd\	.
.	.	.	.	.	.	16cc\JJ	.
4r	.	4r	.	4r	.	16bn/LL	.
.	.	.	.	.	.	16a/	.
.	.	.	.	.	.	16g/	.
.	.	.	.	.	.	16f/JJ	.
16E\LL	.	16E/LL	.	16e/LL	.	16e/LL	.
16c\	.	16c/	.	16cc/	.	16cc/	.
16Bn\	.	16Bn/	.	16bn/	.	16b/	.
16A\JJ	.	16A/JJ	.	16a/JJ	.	16a/JJ	.
=112	=112	=112	=112	=112	=112	=112	=112
16G\LL	.	16G/LL	.	16g/LL	.	16g/LL	.
16F\	.	16F/	.	16f/	.	16f/	.
16E\	.	16E/	.	16e/	.	16e/	.
16D\JJ	.	16D/JJ	.	16d/JJ	.	16d/JJ	.
16C/LL	.	16C/LL	.	16c/LL	.	16c/LL	.
16BBn/	.	(16Bn/	.	16Bn/	.	16Bn/	.
16C/	.	16c/	.	16c/	.	16c/	.
16BB/JJ	.	16B/	.	16B/JJ	.	16B/JJ	.
16C/LL	.	16c/	.	16c/LL	.	16c/LL	.
16BB/	.	16B/	.	16B/	.	16B/	.
16C/	.	16c/	.	16c/	.	16c/	.
&(16BB/JJ&)	.	16B/JJ)	.	16B/JJ	.	&(16B/JJ&)	.
=113	=113	=113	=113	=113	=113	=113	=113
4C'/	.	4c'\	.	4c'/	.	4c'/	.
4CC'/	f	4E'/	f	4G'/	f	4c'/	f
4CC'/	.	4E'/	.	4G'/	.	4c'/	.
=114	=114	=114	=114	=114	=114	=114	=114
4CC'/	.	4E'/	.	4G'/	.	4c'/	.
4r	.	4r	.	4r	.	4r	.
4r	.	4r	.	4r	.	4r	.
=115:|!	=115:|!	=115:|!	=115:|!	=115:|!	=115:|!	=115:|!	=115:|!
*>B	*>B	*>B	*>B	*>B	*>B	*>B	*>B
4AA/	.	4A/	.	4A/ 4a/	.	16aa'\LL	.
.	.	.	.	.	.	16eee'\	f
.	.	.	.	.	.	16ddd'\	.
.	.	.	.	.	.	16ccc#'\JJ	.
4r	f	4r	f	4r	f	16bbn'\LL	.
.	.	.	.	.	.	16aa'\	.
.	.	.	.	.	.	16gg#'\	.
.	.	.	.	.	.	16ff#'\JJ	.
4r	.	4r	.	4r	.	16ee'\LL	.
.	.	.	.	.	.	16aa'\	.
.	.	.	.	.	.	16gg#'\	.
.	.	.	.	.	.	16ff#'\JJ	.
=116	=116	=116	=116	=116	=116	=116	=116
2.r	.	2.r	.	2.r	.	16ee\LL	.
.	.	.	.	.	.	16dd\	.
.	.	.	.	.	.	16cc#\	.
.	.	.	.	.	.	16bn\JJ	.
.	.	.	.	.	.	16a\LL	.
.	.	.	.	.	.	16ee\	.
.	.	.	.	.	.	16dd\	.
.	.	.	.	.	.	16cc#\JJ	.
.	.	.	.	.	.	16b/LL	.
.	.	.	.	.	.	16a/	.
.	.	.	.	.	.	16g#/	.
.	.	.	.	.	.	16f#/JJ	.
=117	=117	=117	=117	=117	=117	=117	=117
16E\LL	.	16r	.	16r	.	16e/LL	.
16A\	.	16a\LL	.	16a/LL	.	16a/	.
16G#\	.	16g#\	.	16g#/	.	16g#/	.
16F#\JJ	.	16f#\JJ	.	16f#/JJ	.	16f#/JJ	.
16E/LL	.	16e\LL	.	16e/LL	.	16e/LL	.
16D/	.	16d\	.	16d/	.	16d/	.
16C#/	.	16c#\	.	16c#/	.	16c#/	.
16BBn/JJ	.	16Bn\JJ	.	16Bn/JJ	.	16Bn/JJ	.
16AA/LL	.	(16A/LL	.	16A/LL	.	16A/LL	.
16GG#/	.	16G#/	.	16G#/	.	16G#/	.
16AA/	.	16A/	.	16A/	.	16A/	.
&(16GG#/JJ&)	.	16G#/JJ)	.	16G#/JJ	.	&(16G#/JJ&)	.
=118	=118	=118	=118	=118	=118	=118	=118
4AA'/	.	4A'/	.	4A/	.	4A'/	.
4AA'/	.	4A'/	.	4A'/	.	4A'/	.
4AA'/	.	4A'/	.	4A/	.	4A/	.
=119	=119	=119	=119	=119	=119	=119	=119
4.BB-/	.	(4.B-/	.	[2.B-/	.	&([2.B-/&)	.
16C/LL	.	16c/LL	.	.	.	.	.
&(16BB-/JJ&)	.	16B-/JJ)	.	.	.	.	.
8AA'/L	.	8A'/L	.	.	.	.	.
8BB-'/J	.	8B-'/J	.	.	.	.	.
=120	=120	=120	=120	=120	=120	=120	=120
2.FF/	.	2.F/	.	4B-/]	.	16B-/]	.
.	.	.	.	.	.	16dd\LL	.
.	.	.	.	.	.	16ff\	.
.	.	.	.	.	.	16bb-\JJ	.
.	.	.	.	4B-'/	.	16ddd\LL	.
.	.	.	.	.	.	16bb-\	.
.	.	.	.	.	.	16ddd\	.
.	.	.	.	.	.	16bb-\JJ	.
.	.	.	.	4B-'/	.	16ddd\LL	.
.	.	.	.	.	.	16bb-\	.
.	.	.	.	.	.	16ddd\	.
.	.	.	.	.	.	16bb-\JJ	.
=121	=121	=121	=121	=121	=121	=121	=121
4.BB-/	.	(4.B-/	.	[2.B-/	.	4eee-\	.
.	.	.	.	.	.	4r	f
16C/LL	.	16c/LL	.	.	.	.	.
&(16BB-/JJ&)	.	16B-/JJ)	.	.	.	.	.
8AA'/L	.	8A'/L	.	.	.	4r	.
8BB-'/J	.	8B-'/J	.	.	.	.	.
=122	=122	=122	=122	=122	=122	=122	=122
2.GG/	.	2.G/	.	4B-/]	.	16r	.
.	.	.	.	.	.	16ee-\LL	p
.	.	.	.	.	.	16gg\	.
.	.	.	.	.	.	16bb-\JJ	.
.	.	.	.	4B-'/	.	16eee-\LL	.
.	.	.	.	.	.	16bb-\	.
.	.	.	.	.	.	16eee-\	.
.	.	.	.	.	.	16bb-\JJ	.
.	.	.	.	4B-'/	.	16eee-\LL	.
.	.	.	.	.	.	16bb-\	.
.	.	.	.	.	.	16eee-\	.
.	.	.	.	.	.	16bb-\JJ	.
=123	=123	=123	=123	=123	=123	=123	=123
2.G\	pp	[2.e-\	pp	4.b-\	pp	4eee-\	.
.	.	.	.	.	.	4r	.
.	.	.	.	16cc\LL	.	.	.
.	.	.	.	16b-\JJ	.	.	.
.	.	.	.	8a'/L	.	4r	.
.	.	.	.	8b-'/J	.	.	.
=124	=124	=124	=124	=124	=124	=124	=124
&(2.A\&)	.	(2e-\]	.	2cc\	.	2.r	.
.	.	4c\)	.	4e-/	.	.	.
=125	=125	=125	=125	=125	=125	=125	=125
2.r	.	2.r	.	2.r	.	2ccc\	pp
.	.	.	.	.	.	&(4ee-\&)	.
=126	=126	=126	=126	=126	=126	=126	=126
2.B-\	.	[2.g\	.	4.dd\	.	2.r	.
.	.	.	.	16ee\LL	.	.	.
.	.	.	.	16dd\JJ	.	.	.
.	.	.	.	8cc#'\L	.	.	.
.	.	.	.	8dd'\J	.	.	.
=127	=127	=127	=127	=127	=127	=127	=127
&(2.c#\&)	.	(2g\]	.	2ee\	.	2.r	.
.	.	4e\)	.	4g/	.	.	.
=128	=128	=128	=128	=128	=128	=128	=128
2.r	.	2.r	.	2.r	.	2eee\	.
.	.	.	.	.	.	&(4gg\&)	pp
=129	=129	=129	=129	=129	=129	=129	=129
4.B-\	.	2.r	.	2.r	.	2.r	.
16c\LL	f	.	.	.	.	.	.
&(16B-\JJ&)	.	.	.	.	.	.	.
8A'\L	.	.	.	.	.	.	.
8B-'\J	.	.	.	.	.	.	.
=130	=130	=130	=130	=130	=130	=130	=130
4C#'/	.	(4.b-\	.	2.r	.	2.r	.
4D'\	.	.	.	.	.	.	.
.	.	16cc\LL	f	.	.	.	.
.	.	16b-\JJ)	.	.	.	.	.
4D#'\	.	8a'\L	.	.	.	.	.
.	.	8b-'\J	.	.	.	.	.
=131	=131	=131	=131	=131	=131	=131	=131
4E'\	.	4c#'\	.	4r	.	4.bb-\	f
4c#'\	.	4e'\	.	4.b-\	f	.	.
.	.	.	.	.	.	16ccc\LL	.
.	.	.	.	.	.	&(16bb-\JJ&)	.
4d'\	.	4f'\	.	.	.	8aa'\L	.
.	.	.	.	16cc\LL	.	8bb-'\J	.
.	.	.	.	16b-\JJ	.	.	.
=132	=132	=132	=132	=132	=132	=132	=132
4e'\	.	4g'\	.	8a'/L	.	4cc#'\	.
.	.	.	.	8b-'/J	.	.	.
4e'\	.	4g'\	.	4gg'\	.	4eee'\	.
4f'\	.	4a'\	.	4ff'\	.	4ddd'\	.
=133	=133	=133	=133	=133	=133	=133	=133
4g'\	.	4b-'\	.	[4ee\	.	8ccc#\L	.
.	.	.	.	.	.	16eee\L	.
.	.	.	.	.	.	&(16ddd\JJ&)	.
4.g\	.	(4.b-\	.	8ee\L]	.	4.ccc#\	.
.	.	.	.	16gg\L	.	.	.
.	.	.	.	16ff\JJ	.	.	.
.	.	.	.	8ee\L	.	.	.
&(8f\&)	.	8a\)	.	8dd\J	.	&(8ddd\&)	.
=134	=134	=134	=134	=134	=134	=134	=134
4g'\	.	4b-'\	.	[4ee\	.	8ccc#\L	.
.	.	.	.	.	.	16eee\L	.
.	.	.	.	.	.	&(16ddd\JJ&)	.
4.g\	.	(4.b-\	.	8ee\L]	.	4.ccc#\	.
.	.	.	.	16gg\L	.	.	.
.	.	.	.	16ff\JJ	.	.	.
.	.	.	.	8ee\L	.	.	.
&(8f\&)	.	8a\)	.	8dd\J	.	&(8ddd\&)	.
=135	=135	=135	=135	=135	=135	=135	=135
2.r	.	2.r	.	[4ee-\	f	2.r	.
.	.	.	.	8ee-\L]	.	.	.
.	.	.	.	16ff\L	.	.	.
.	.	.	.	16ee-\JJ	.	.	.
.	.	.	.	8dd'\L	.	.	.
.	.	.	.	8ee-'\J	.	.	.
=136	=136	=136	=136	=136	=136	=136	=136
4.e-\	.	2.r	.	4f#'/	.	2.r	.
.	.	.	.	4g'/	.	.	.
16f#\LL	f	.	.	.	.	.	.
&(16e-\JJ&)	.	.	.	.	.	.	.
8d'\L	.	.	.	4g#'/	.	.	.
8e-'\J	.	.	.	.	.	.	.
=137	=137	=137	=137	=137	=137	=137	=137
4F#'\	.	4r	.	4a'/	.	4.eee-\	.
4G'\	.	(4.e-\	.	4b-'\	.	.	.
.	.	.	.	.	.	16fff\LL	f
.	.	.	.	.	.	&(16eee-\JJ&)	.
4G-'\	.	.	.	4bn'\	.	8ddd'\L	.
.	.	16f\LL	f	.	.	8eee-'\J	.
.	.	16e-\JJ)	.	.	.	.	.
=138	=138	=138	=138	=138	=138	=138	=138
4A'\	.	8d'\L	.	4cc'\	.	4ff#'\	.
.	.	8e-'\J	.	.	.	.	.
4A'\	.	4c'\	.	4aa'\	.	4ccc'\	.
4B-'\	.	4d'\	.	4gg'\	.	4bb-'\	.
=139	=139	=139	=139	=139	=139	=139	=139
[4c\	.	[4e-\	.	8ff#\L	.	8aa\L	.
.	.	.	.	16aa\L	.	16ccc\L	.
.	.	.	.	16gg\JJ	.	&(16bb-\JJ&)	.
8c\L]	.	(8e-\L]	.	4.ff#\	.	4.aa\	.
16A\L	.	16c\L	.	.	.	.	.
16B-\JJ	.	16d\JJ)	.	.	.	.	.
&(8c\L&)	.	(8e-\L	.	.	.	.	.
8B-\J	.	8d\J)	.	8gg\	.	&(8bb-\&)	.
=140	=140	=140	=140	=140	=140	=140	=140
[4c\	.	[4e-\	.	8ff#\L	.	8aa\L	.
.	.	.	.	16aa\L	.	16ccc\L	.
.	.	.	.	16gg\JJ	.	&(16bb-\JJ&)	.
8c\L]	.	(8e-\L]	.	4.ff#\	.	4.aa\	.
16A\L	.	16c\L	.	.	.	.	.
16B-\JJ	.	16d\JJ)	.	.	.	.	.
&(8c\L&)	.	(8e-\L	.	.	.	.	.
8B-\J	.	8d\J)	.	8gg\	.	&(8bb-\&)	.
=141	=141	=141	=141	=141	=141	=141	=141
2.r	.	(4.a-\	.	2.r	.	2.r	.
.	.	16b-\LL	f	.	.	.	.
.	.	16a-\JJ)	.	.	.	.	.
.	.	8g'\L	.	.	.	.	.
.	.	8a-'\J	.	.	.	.	.
=142	=142	=142	=142	=142	=142	=142	=142
4.A-\	.	4Bn'/	.	2.r	.	2.r	.
.	.	4c'\	.	.	.	.	.
16B-\LL	f	.	.	.	.	.	.
16A-\JJ	.	.	.	.	.	.	.
&(8G'\L&)	.	4c#'\	.	.	.	.	.
8A-'\J	.	.	.	.	.	.	.
=143	=143	=143	=143	=143	=143	=143	=143
4BBn'/	.	4d'\	.	4r	.	4.aa-\	f
4C'/	.	4e-'\	.	4.a-/	.	.	.
.	.	.	.	.	.	16bb-\LL	.
.	.	.	.	.	.	&(16aa-\JJ&)	.
4C#'/	.	4en'\	.	.	.	8gg'\L	.
.	.	.	.	16b-/LL	f	8aa-'\J	.
.	.	.	.	16a-/JJ	.	.	.
=144	=144	=144	=144	=144	=144	=144	=144
4D\	.	4f'\	.	8g'/L	.	4bn'\	.
.	.	.	.	8a-'/J	.	.	.
4f'\	.	4a-'\	.	4dd'\	.	4aa-'\	.
&(4e-'\&)	.	4g'\	.	4cc'\	.	4aa-'\	.
=145	=145	=145	=145	=145	=145	=145	=145
8d\L	.	(8f\L	.	8bn\L	.	[4aa-\	.
16f\L	.	16a-\L	.	16dd\L	.	.	.
16e-\JJ	.	16g\JJ)	.	16cc\JJ	.	.	.
4.d\	.	(4.f\	.	4.b\	.	8aa-\L]	.
.	.	.	.	.	.	16ff\L	.
.	.	.	.	.	.	&(16gg\JJ&)	.
.	.	.	.	.	.	8aa-\L	.
&(8e-\&)	.	8g\)	.	8cc\	.	&(8gg\J&)	.
=146	=146	=146	=146	=146	=146	=146	=146
8d\L	.	(8f\L	.	8bn\L	.	[4aa-\	.
16f\L	.	16a-\L	.	16dd\L	.	.	.
16e-\JJ	.	16g\JJ)	.	16cc\JJ	.	.	.
&(4.d\&)	.	(4.f\	.	4.b\	.	8aa-\L]	.
.	.	.	.	.	.	16ff\L	.
.	.	.	.	.	.	&(16gg\JJ&)	.
.	.	.	.	.	.	8aa-\L	.
8e-\	.	8g\)	.	8cc\	.	&(8gg\J&)	.
=147	=147	=147	=147	=147	=147	=147	=147
2.r	.	(8b-\L	.	8dd-\L	.	4r	.
.	.	16g\L	.	16b-\L	.	.	.
.	.	16a-\JJ)	.	16cc\JJ	.	.	.
.	.	(4.b-\	.	4.dd-\	.	8eee\L	.
.	.	.	.	.	.	16ggg\L	.
.	.	.	.	.	.	&(16fff\JJ&)	.
.	.	.	.	.	.	8eee\L	.
.	.	8a-\)	.	8cc\	.	&(8fff\J&)	.
=148	=148	=148	=148	=148	=148	=148	=148
2.r	.	(8b-\L	.	8dd-\L	.	4r	.
.	.	16g\L	.	16b-\L	.	.	.
.	.	16a-\JJ)	.	16cc\JJ	.	.	.
.	.	(4.b-\	.	4.dd-\	.	8eee\L	.
.	.	.	.	.	.	16ggg\L	.
.	.	.	.	.	.	&(16fff\JJ&)	.
.	.	.	.	.	.	8eee\L	.
.	.	8a-\)	.	8cc\	.	&(8fff\J&)	.
=149	=149	=149	=149	=149	=149	=149	=149
8e-\L	.	(8g-\L	.	8cc\L	.	[4aa\	.
16c\L	.	16e-\L	.	16ee-\L	.	.	.
16d-\JJ	.	16f\JJ)	.	16dd-\JJ	.	.	.
4.e-\	.	(4.g-\	.	4.cc\	.	8aa\L]	.
.	.	.	.	.	.	16ccc\L	.
.	.	.	.	.	.	&(16bb-\JJ&)	.
.	.	.	.	.	.	8aa\L	.
&(8d-\&)	.	8f\)	.	8b-\	.	&(8bb-\J&)	.
=150	=150	=150	=150	=150	=150	=150	=150
8e-\L	.	(8g-\L	.	8cc\L	.	[4aa\	.
&(16c\L&)	.	16e-\L	.	16ee-\L	.	.	.
16d-\JJ	.	16f\JJ)	.	16dd-\JJ	.	.	.
4.e-\	.	(4.g-\	.	4.cc\	.	8aa\L]	.
.	.	.	.	.	.	16ccc\L	.
.	.	.	.	.	.	&(16bb-\JJ&)	.
.	.	.	.	.	.	8aa\L	.
&(8d-\&)	.	8f\)	.	8b-\	.	&(8bb-\J&)	.
=151	=151	=151	=151	=151	=151	=151	=151
4BB-/	.	8B-/L	.	8d-/L	.	[4ddd-\	.
.	.	8B-/	.	8d-/	.	.	.
4r	.	8B-/	.	8d-/	.	8ddd-\L]	.
.	.	8B-/	.	8d-/	.	16eee-\L	.
.	.	.	.	.	.	&(16ddd-\JJ&)	.
4r	.	8B-/	.	8d-/	.	8ccc'\L	.
.	.	8B-/J	.	8d-/J	.	8ddd-'\J	.
=152	=152	=152	=152	=152	=152	=152	=152
2.r	.	2.B-/	.	2.d-/	.	[4bb-\	.
.	.	.	.	.	.	8bb-\L]	.
.	.	.	.	.	.	16ccc\L	.
.	.	.	.	.	.	&(16bb-\JJ&)	.
.	.	.	.	.	.	8aa'\L	.
.	.	.	.	.	.	8bb-'\J	.
=153	=153	=153	=153	=153	=153	=153	=153
2.r	.	2.B-/	.	2.d-/	.	[4ff\	.
.	.	.	.	.	.	8ff\L]	.
.	.	.	.	.	.	16gg-\L	.
.	.	.	.	.	.	&(16ff\JJ&)	.
.	.	.	.	.	.	8ee'\L	.
.	.	.	.	.	.	8ff'\J	.
=154	=154	=154	=154	=154	=154	=154	=154
2.r	.	2.B-/	.	2.d-/	.	[4dd-\	.
.	.	.	.	.	.	8dd-\L]	.
.	.	.	.	.	.	16ee-\L	.
.	.	.	.	.	.	&(16dd-\JJ&)	.
.	.	.	.	.	.	8cc'\L	.
.	.	.	.	.	.	8dd-'\J	.
=155	=155	=155	=155	=155	=155	=155	=155
2.G-\	.	2.B-/	.	[4gg-\	.	8d-/L	.
.	.	.	.	.	.	8d-/	.
.	.	.	.	8gg-\L]	.	8d-/	.
.	.	.	.	16aa-\L	.	8d-/	.
.	.	.	.	16gg-\JJ	.	.	.
.	.	.	.	8ff'\L	.	8d-/	.
.	.	.	.	8gg-'\J	.	8d-/J	.
=156	=156	=156	=156	=156	=156	=156	=156
2.D-\	.	2.B-/	.	[4dd-\	.	8d-/L	.
.	.	.	.	.	.	8d-/	.
.	.	.	.	8dd-\L]	.	8d-/	.
.	.	.	.	16ee-\L	.	8d-/	.
.	.	.	.	16dd-\JJ	.	.	.
.	.	.	.	8cc'\L	.	8d-/	.
.	.	.	.	8dd-'\J	.	8d-/J	.
=157	=157	=157	=157	=157	=157	=157	=157
2.BB-/	.	2.B-/	.	[4b-\	.	8d-/L	.
.	.	.	.	.	.	8d-/	.
.	.	.	.	8b-\L]	.	8d-/	.
.	.	.	.	16cc-\L	.	8d-/	.
.	.	.	.	16b-\JJ	.	.	.
.	.	.	.	8a'/L	.	8d-/	.
.	.	.	.	8b-'/J	.	8d-/J	.
=158	=158	=158	=158	=158	=158	=158	=158
4GG-'/	.	2.B-/	.	4g-'/	.	8d-/L	.
.	.	.	.	.	.	8d-/	.
4FF'/	.	.	.	4f'/	.	8d-/	.
.	.	.	.	.	.	8d-/	.
4EE'/	.	.	.	4e'/	.	8c/	.
.	.	.	.	.	.	8c/J	.
=159	=159	=159	=159	=159	=159	=159	=159
4FF/	.	2.A-/	.	8c/L	.	[4ff\	.
.	.	.	.	8c/	.	.	.
4r	.	.	.	8c/	.	8ff\L]	.
.	.	.	.	8c/	.	16gg\L	.
.	.	.	.	.	.	&(16ff\JJ&)	.
4r	.	.	.	8c/	.	8ee'\L	.
.	.	.	.	8c/J	.	8ff'\J	.
=160	=160	=160	=160	=160	=160	=160	=160
2.r	.	2.A-/	.	2.c/	.	[4cc\	.
.	.	.	.	.	.	8cc\L]	.
.	.	.	.	.	.	16dd-\L	.
.	.	.	.	.	.	&(16cc\JJ&)	.
.	.	.	.	.	.	8bn'\L	.
.	.	.	.	.	.	8cc'\J	.
=161	=161	=161	=161	=161	=161	=161	=161
2.r	.	2.A-/	.	2.c/	.	[4a-/	.
.	.	.	.	.	.	8a-/L]	.
.	.	.	.	.	.	16b-/L	.
.	.	.	.	.	.	&(16a-/JJ&)	.
.	.	.	.	.	.	8g'/L	.
.	.	.	.	.	.	8a-'/J	.
=162	=162	=162	=162	=162	=162	=162	=162
2.r	.	2.A-/	.	2.c/	.	[4f/	.
.	.	.	.	.	.	8f/L]	.
.	.	.	.	.	.	16g/L	.
.	.	.	.	.	.	&(16f/JJ&)	.
.	.	.	.	.	.	8e'/L	.
.	.	.	.	.	.	8f'/J	.
=163	=163	=163	=163	=163	=163	=163	=163
2.D-\	.	2.A-/	.	[4dd-\	.	8f/L	.
.	.	.	.	.	.	8f/	.
.	.	.	.	8dd-\L]	.	8f/	.
.	.	.	.	16ee-\L	.	8f/	.
.	.	.	.	16dd-\JJ	.	.	.
.	.	.	.	8cc'\L	.	8f/	.
.	.	.	.	8dd-'\J	.	8f/J	.
=164	=164	=164	=164	=164	=164	=164	=164
2.AA-/	.	2.A-/	.	[4a-/	.	8f/L	.
.	.	.	.	.	.	8f/	.
.	.	.	.	8a-/L]	.	8f/	.
.	.	.	.	16b-/L	.	8f/	.
.	.	.	.	16a-/JJ	.	.	.
.	.	.	.	8g'/L	.	8f/	.
.	.	.	.	8a-'/J	.	8f/J	.
=165	=165	=165	=165	=165	=165	=165	=165
2FF/	.	2.A-/	.	[4f/	.	8f/L	.
.	.	.	.	.	.	8f/	.
.	.	.	.	8f/L]	.	8f/	.
.	.	.	.	16g-/L	.	8f/	.
.	.	.	.	16f/JJ	.	.	.
4DD-'/	.	.	.	8e-'/L	.	8f/	.
.	.	.	.	8f'/J	.	8f/J	.
=166	=166	=166	=166	=166	=166	=166	=166
4D-'\	.	2.A-/	.	4d-'/	.	8f/L	.
.	.	.	.	.	.	8f/	.
4C'/	.	.	.	4c'/	.	8f/	.
.	.	.	.	.	.	8f/	.
4BBn'/	.	.	.	4Bn'/	.	8f/	.
.	.	.	.	.	.	8f/J	.
=167	=167	=167	=167	=167	=167	=167	=167
4CC/ 4C/	.	4G/	.	4c'/	.	16e'/	.
.	.	.	.	.	.	16ccc'\LL	.
.	.	.	.	.	.	16bbn'\	.
.	.	.	.	.	.	16aa'\JJ	.
8r	.	[2c\	.	[2G/ [2e/	.	16gg'\LL	.
.	.	.	.	.	.	16ff'\	.
8C'/L	.	.	.	.	.	16ee'\	.
.	.	.	.	.	.	16dd'\JJ	.
8C'/	.	.	.	.	.	[4cc\	.
8C'/J	.	.	.	.	.	.	.
=168	=168	=168	=168	=168	=168	=168	=168
4EE/	.	4c\]	.	4G/] 4e/]	.	16cc\LL]	.
.	.	.	.	.	.	16ccc'\	.
.	.	.	.	.	.	16bbn'\	.
.	.	.	.	.	.	16aa'\JJ	.
8r	.	[2c\	.	[2G/ [2e/	.	16gg'\LL	.
.	.	.	.	.	.	16ff'\	.
8E'\L	.	.	.	.	.	16ee'\	.
.	.	.	.	.	.	16dd'\JJ	.
8E'\	.	.	.	.	.	[4cc\	.
8E'\J	.	.	.	.	.	.	.
=169	=169	=169	=169	=169	=169	=169	=169
4GG/	.	4c\]	.	4G/] 4e/]	.	16cc\LL]	.
.	.	.	.	.	.	16ccc'\	.
.	.	.	.	.	.	16bbn'\	.
.	.	.	.	.	.	16aa'\JJ	.
8r	.	[2c\	.	[2G/ [2e/	.	16gg'\LL	.
.	.	.	.	.	.	16ff'\	.
8G'\L	.	.	.	.	.	16ee'\	.
.	.	.	.	.	.	16dd'\JJ	.
8G'\	.	.	.	.	.	16cc'\LL	.
.	.	.	.	.	.	16ccc'\	.
8G'\J	.	.	.	.	.	16bb'\	.
.	.	.	.	.	.	16aa'\JJ	.
=170	=170	=170	=170	=170	=170	=170	=170
4C/	.	4c\]	.	4G/] 4e/]	.	16gg\LL	.
.	.	.	.	.	.	16ff\	.
.	.	.	.	.	.	16ee\	.
.	.	.	.	.	.	16dd\JJ	.
8r	.	4c\	.	4G/ 4e/	.	16cc\LL	.
.	.	.	.	.	.	16bn\	.
8c'\L	.	.	.	.	.	16dd\	.
.	.	.	.	.	.	16cc\JJ	.
8c'\	.	4c\	.	4G/ 4e/	.	16b\LL	.
.	.	.	.	.	.	16cc\	.
8c'\J	.	.	.	.	.	16dd\	.
.	.	.	.	.	.	16cc\JJ	.
=171	=171	=171	=171	=171	=171	=171	=171
16CC'/LL	.	4c\	.	4G/ 4e/	.	4b-\	.
16C'/	.	.	.	.	.	.	.
16BBn/	.	.	.	.	.	.	.
16AA'/JJ	.	.	.	.	.	.	.
16GG'/LL	.	[2C/ [2c/	.	4r	.	[2ee\	.
16FF'/	.	.	.	.	.	.	.
16EE'/	.	.	.	.	.	.	.
16DD'/JJ	.	.	.	.	.	.	.
[4CC/	.	.	.	16r	.	.	.
.	.	.	.	16c'/LL	.	.	.
.	.	.	.	16d'/	.	.	.
.	.	.	.	16e'/JJ	.	.	.
=172	=172	=172	=172	=172	=172	=172	=172
16CC/LL]	.	4C/] 4c/]	.	16f'/LL	.	4ee\]	.
16C'/	.	.	.	16g'/	.	.	.
16BBn/	.	.	.	16a'/	.	.	.
16AA'/JJ	.	.	.	16bn'/JJ	.	.	.
16GG'/LL	.	[2c\ [2e\	.	[4cc\	.	[2gg\	.
16FF'/	.	.	.	.	.	.	.
16EE'/	.	.	.	.	.	.	.
16DD'/JJ	.	.	.	.	.	.	.
[4CC/	.	.	.	16cc/LL]	.	.	.
.	.	.	.	16c'/	.	.	.
.	.	.	.	16d'/	.	.	.
.	.	.	.	16e'/JJ	.	.	.
=173	=173	=173	=173	=173	=173	=173	=173
16CC/LL]	.	4c\] 4e\]	.	16f'/LL	.	4gg\]	.
16C'/	.	.	.	16g'/	.	.	.
16BBn/	.	.	.	16a'/	.	.	.
16AA'/JJ	.	.	.	16bn'/JJ	.	.	.
16GG'/LL	.	[2c\ [2g\	.	[4cc\	.	[2bb-\	.
16FF'/	.	.	.	.	.	.	.
16EE'/	.	.	.	.	.	.	.
16DD'/JJ	.	.	.	.	.	.	.
16CC'/LL	.	.	.	16cc/LL]	.	.	.
16C'/	.	.	.	16c'/	.	.	.
16BB'/	.	.	.	16d'/	.	.	.
16AA'/JJ	.	.	.	16e'/JJ	.	.	.
=174	=174	=174	=174	=174	=174	=174	=174
16GG'/LL	.	(4c\] 4g\]	.	16f'/LL	.	4bb-\]	.
16FF'/	.	.	.	16g'/	.	.	.
16EE'/	.	.	.	16a'/	.	.	.
16DD'/JJ	.	.	.	16bn'/JJ	.	.	.
16CC'/LL	.	4c'\ 4g'\	.	16cc'/LL	.	4eee'\	.
16C'/	.	.	.	16c'/	.	.	.
16BBn'/	.	.	.	16d'/	.	.	.
16AA'/JJ	.	.	.	16e'/JJ	.	.	.
16GG'/LL	.	4c'\) 4g'\	.	16f'/LL	.	4ggg'\	.
16FF'/	.	.	.	16g'/	.	.	.
16EE'/	.	.	.	16a'/	.	.	.
16DD'/JJ	.	.	.	16b'/JJ	.	.	.
=175	=175	=175	=175	=175	=175	=175	=175
8CC'/L	.	2.c\ 2.g\	.	[2cc\	.	2.bbb-\	.
16DD'/L	.	.	.	.	.	.	.
16EE'/JJ	.	.	.	.	.	.	.
16FF'/LL	.	.	.	.	.	.	.
16GG'/	.	.	.	.	.	.	.
16AA'/	.	.	.	.	.	.	.
16BBn'/JJ	.	.	.	.	.	.	.
[4C/	.	.	.	8cc\L]	.	.	.
.	.	.	.	16bn'\L	.	.	.
.	.	.	.	16a'\JJ	.	.	.
=176	=176	=176	=176	=176	=176	=176	=176
8C/L]	.	2.C/ 2.c/	.	16g'/LL	.	2.ee\	.
.	.	.	.	16f'/	.	.	.
16C'/L	.	.	.	16e'/	.	.	.
16D'/JJ	.	.	.	16d'/JJ	.	.	.
16E\LL	.	.	.	[4c/	.	.	.
16F\	.	.	.	.	.	.	.
16G\	.	.	.	.	.	.	.
&(16A\JJ&)	.	.	.	.	.	.	.
[4B-\	.	.	.	8c/L]	.	.	.
.	.	.	.	16c'/L	.	.	.
.	.	.	.	16d'/JJ	.	.	.
=177	=177	=177	=177	=177	=177	=177	=177
8B-'\L]	.	8C/L 8c/	.	16e/LL	.	2.gg\	.
.	.	.	.	16f/	.	.	.
8A'\	.	8C/ 8c/	.	16g/	.	.	.
.	.	.	.	16a/JJ	.	.	.
8G'\	.	8C/ 8c/	.	8b-'/L	.	.	.
8F'\	.	8C/ 8c/	.	8a'/	.	.	.
8E'\	.	8C/ 8c/	.	8g'/	.	.	.
8D'\J	.	8C/J 8c/	.	8f'/J	.	.	.
=178	=178	=178	=178	=178	=178	=178	=178
8C'/L	.	8C/L 8c/	.	8e'/L	.	16c/LL	.
.	.	.	.	.	.	16Bn/	.
8D'/	.	8C/ 8c/	.	8f'/	.	16c/	.
.	.	.	.	.	.	16d/JJ	.
8C'/	.	8C/ 8c/	.	8e'/	.	16e/LL	.
.	.	.	.	.	.	16f/	.
8BB-'/	.	8C/ 8c/	.	8d'/	.	16g/	.
.	.	.	.	.	.	16a/JJ	.
8AA'/	.	8C/ 8c/	.	8c'/	.	16b-\LL	.
.	.	.	.	.	.	16cc\	.
8GG'/J	.	8C/J 8c/	.	8B-'/J	.	16dd\	.
.	.	.	.	.	.	&(16ee\JJ&)	.
=179	=179	=179	=179	=179	=179	=179	=179
4.FF/	ff	(4.F/	ff	4.A/ 4.f/	ff	4.ff\	ff
16GG/LL	.	16G/LL	.	16g/LL	.	16gg\LL	.
&(16FF/JJ&)	.	16F/JJ)	.	16f/JJ	.	&(16ff\JJ&)	.
8EE'/L	.	8E'/L	.	8e'/L	.	8ee'\L	.
8FF'/J	.	8F'/J	.	8f'/J	.	8ff'\J	.
=180	=180	=180	=180	=180	=180	=180	=180
4CC/	.	4C/	.	4c/	.	4cc\	.
4r	.	4r	.	4r	.	4r	.
4r	.	4r	.	4r	.	4r	.
=181	=181	=181	=181	=181	=181	=181	=181
4.FF/	.	(4.F/	.	4.f/	.	4.ff\	.
16GG/LL	.	16G/LL	.	16g/LL	.	16gg\LL	.
&(16FF/JJ&)	.	16F/JJ)	.	16f/JJ	.	&(16ff\JJ&)	.
8EE'/L	.	8E'/L	.	8e'/L	.	8ee'\L	.
8FF'/J	.	8F'/J	.	8f'/J	.	8ff'\J	.
=182	=182	=182	=182	=182	=182	=182	=182
4DD/	.	4D/	.	4d/	.	4dd\	.
4r	.	4r	.	4r	.	4r	.
4r	.	4r	.	4r	.	4r	.
=183	=183	=183	=183	=183	=183	=183	=183
2.D\	p	(2.d\	p	[2.b-\	p	[4ff\	p
.	.	.	.	.	.	8ff\L]	.
.	.	.	.	.	.	16gg\L	.
.	.	.	.	.	.	&(16ff\JJ&)	.
.	.	.	.	.	.	8ee'\L	.
.	.	.	.	.	.	8ff'\J	.
=184	=184	=184	=184	=184	=184	=184	=184
2.E\	.	[2.c\)	.	2b-\]	.	2gg\	.
.	.	.	.	4g/	.	&(4b-\&)	.
=185	=185	=185	=185	=185	=185	=185	=185
4F\	.	(4c\]	.	2f/	.	2a/	.
4D\	.	4d\	.	.	.	.	.
&(4BB-/&)	.	4G/)	.	8.b-/L	.	8.dd\L	.
.	.	.	.	16g/Jk	.	&(16b-\Jk&)	.
=186	=186	=186	=186	=186	=186	=186	=186
2.C/	.	(8c/L	.	2f/	.	2a/	.
.	.	8Bn/	.	.	.	.	.
.	.	8c/	.	.	.	.	.
.	.	8B/J	.	.	.	.	.
.	.	4c\)	.	4e/	.	&(4g/&)	.
=187	=187	=187	=187	=187	=187	=187	=187
2.r	.	2.r	.	[4b-\	.	2.r	.
.	.	.	.	8b-\L]	p	.	.
.	.	.	.	16cc\L	.	.	.
.	.	.	.	16b-\JJ	.	.	.
.	.	.	.	8a'/L	.	.	.
.	.	.	.	8b-'/J	.	.	.
=188	=188	=188	=188	=188	=188	=188	=188
2.r	.	(4.a\	.	4.cc\	.	[2.ff\	p
.	.	16b-\LL	p	16dd-\LL	.	.	.
.	.	16a\JJ)	.	16cc\JJ	.	.	.
.	.	8g'\L	.	8b-'\L	.	.	.
.	.	8a'\J	.	8cc'\J	.	.	.
=189	=189	=189	=189	=189	=189	=189	=189
2.r	.	(4b-\	.	2dd-\	.	4ff\]	.
.	.	4g-\	.	.	.	&([4bb-\&)	.
.	.	4e-\)	.	8.gg-\L	.	8.bb-\L]	.
.	.	.	.	16ee-\Jk	.	&(16gg-\Jk&)	.
=190	=190	=190	=190	=190	=190	=190	=190
2.r	.	4a-'\	.	2dd-\	.	2ff\	.
.	.	4A-'/	.	.	.	.	.
.	.	4r	.	4cc\	.	&(4ee-\&)	.
=191	=191	=191	=191	=191	=191	=191	=191
4D-\	p	(2d-\	.	2f/	.	2.r	.
4BB-/	.	.	.	.	.	.	.
&(4GG-/&)	.	8.g-\L	.	8.b-/L	.	.	.
.	.	16e-\Jk)	.	16g-/Jk	.	.	.
=192	=192	=192	=192	=192	=192	=192	=192
4AA-'/	.	(2d-\	.	2f/	.	2.r	.
4A-'\	.	.	.	.	.	.	.
4r	.	4c\)	.	4e-/	.	.	.
=193	=193	=193	=193	=193	=193	=193	=193
2.r	.	(4b-\	.	2b-\	.	2dd-\	.
.	.	4g-\	.	.	.	.	.
.	.	4e-\)	.	4b-'\	.	8.gg-\L	.
.	.	.	.	.	.	&(16ee-\Jk&)	.
=194	=194	=194	=194	=194	=194	=194	=194
2.r	.	4f'\	.	2b-\	.	2dd-\	.
.	.	4F'/	.	.	.	.	.
.	.	4r	.	4a/	.	&(4cc\&)	.
=195	=195	=195	=195	=195	=195	=195	=195
4B-\	.	[2B-/	.	2d-/	.	2.r	.
4G-\	.	.	.	.	.	.	.
&(4E-\&)	.	4B-'/]	.	8.g-/L	.	.	.
.	.	.	.	16e-/Jk	.	.	.
=196	=196	=196	=196	=196	=196	=196	=196
2.F\	.	(2.A-/	.	2.d-/	.	4r	.
.	.	.	.	.	.	4dd-\	.
.	.	.	.	.	.	4dd-\	.
=197	=197	=197	=197	=197	=197	=197	=197
&(4D-\&)	.	2.F/)	.	2.a-/	.	8dd-\L	.
.	.	.	.	.	.	8cc-\	.
4DD-/	.	.	.	.	.	8b-\	.
.	.	.	.	.	.	8cc-\	.
4DD-/	.	.	.	.	.	8dd-\	.
.	.	.	.	.	.	&(8cc-\J&)	.
=198	=198	=198	=198	=198	=198	=198	=198
[2.GG-/	.	(4.D-/	.	4g-/	.	4b-\	.
.	.	.	.	4r	p	4r	p
.	.	16E-/LL	p	.	.	.	.
.	.	16D-/JJ)	.	.	.	.	.
.	.	8C'/L	.	4r	.	4r	.
.	.	8D-'/J	.	.	.	.	.
=199	=199	=199	=199	=199	=199	=199	=199
2.GG-/]	p	[2.D-/	.	4r	.	4r	.
.	.	.	.	4B-/	.	8r	.
.	.	.	.	.	.	8b-\	.
.	.	.	.	4B-/	.	4b-\	.
=200	=200	=200	=200	=200	=200	=200	=200
.	.	.	.	.	.	a-q/LL	.
.	.	.	.	.	.	&(b-q/JJ&)	.
[2.AA-/	.	(4.D-/]	.	[2.c-/	.	4.dd-\	.
.	.	16E-/LL	.	.	.	&(8cc-/L&)	.
.	.	16D-'/JJ)	.	.	.	.	.
.	.	8C/L	.	.	.	8a-'/	.
.	.	8D-'/J	.	.	.	8g-'/J	.
=201	=201	=201	=201	=201	=201	=201	=201
2.AA-/]	.	[2.D-/	.	4c-/]	.	4f/	.
.	.	.	.	4c-/	.	8r	.
.	.	.	.	.	.	8cc-\	.
.	.	.	.	4c-/	.	4cc-\	.
=202	=202	=202	=202	=202	=202	=202	=202
.	.	.	.	.	.	b-q/LL	.
.	.	.	.	.	.	&(cc-q/JJ&)	.
[2.BB-/	.	(4.D-/]	.	[2.d-/	.	4.ee-\	.
.	.	16E-/LL	.	.	.	8dd-\	.
.	.	16D-/JJ)	.	.	.	.	.
.	.	8C'/L	.	.	.	&(8b-'/L&)	.
.	.	8D-/J	.	.	.	8a-'/J	.
=203	=203	=203	=203	=203	=203	=203	=203
2.BB-/]	.	2.D-/	.	4d-/]	.	4g-/	.
.	.	.	.	4d-/	.	8r	.
.	.	.	.	.	.	8gg-\	.
.	.	.	.	4d-/	.	4gg-\	.
=204	=204	=204	=204	=204	=204	=204	=204
.	.	.	.	.	.	ffq/LL	.
.	.	.	.	.	.	ggnq/JJ	.
[2.FF/	.	(4.D-/	.	2a-/	.	4.bb-\	.
.	.	16E-/LL	.	.	.	&(8aa-\L&)	.
.	.	16D-/JJ)	.	.	.	.	.
.	.	8C'/L	.	8a-'/L	.	8aa-'\	.
.	.	8D-'/J	.	8g-'/J	.	8gg-'\J	.
=205	=205	=205	=205	=205	=205	=205	=205
4FF/]	.	2.D-/	.	8g-/L	.	8gg-\L	.
.	.	.	.	8f/	.	&(8ff\J&)	.
4AA-/	.	.	.	8f'/	.	8ff'\L	.
.	.	.	.	8e-'/	.	8ee-'\	.
4DD-/	.	.	.	8d-'/	.	8dd-'\	.
.	.	.	.	8c-'/J	.	8cc-'\J	.
=206	=206	=206	=206	=206	=206	=206	=206
2.GG-/	.	(4.D-/	.	4A/	.	4a/	.
.	.	.	.	4B-/	.	&(4b-\&)	.
.	.	16E-/LL	.	.	.	.	.
.	.	16D-/JJ)	.	.	.	.	.
.	.	8C'/L	.	4B-'/	.	4b-'\	.
.	.	8D-'/J	.	.	.	.	.
=207	=207	=207	=207	=207	=207	=207	=207
&(2.FF/&)	.	2.D-/	.	4.B-/	.	4.b-\	.
.	.	.	.	16c/LL	.	16cc\LL	.
.	.	.	.	16B-/JJ	.	&(16b-\JJ&)	.
.	.	.	.	8A'/L	.	8a'/L	.
.	.	.	.	8B-'/J	.	8b-'/J	.
=208	=208	=208	=208	=208	=208	=208	=208
2EE/	f	(4.C/	f	2g/	f	2gg\	f
.	.	16d-\LL	.	.	.	.	.
.	.	16c\JJ)	.	.	.	.	.
4E'\	.	8Bn'/L	.	4g/	.	4b-'\	.
.	.	8c'/J	.	.	.	.	.
=209	=209	=209	=209	=209	=209	=209	=209
4F'\	.	4c'\	.	4c'/	.	4a-'/	.
4E-'\	.	4G'/	.	4c'/	.	4g'/	.
4D-'\	.	8A-'/L	.	4Bn'/	.	4f'/	.
.	.	8F'/J	.	.	.	.	.
=210	=210	=210	=210	=210	=210	=210	=210
4C/	.	4E/	.	4G/	.	16cc'/LL	p
.	.	.	.	.	.	16c'/	.
.	.	.	.	.	.	16d'/	.
.	.	.	.	.	.	16e'/JJ	.
4r	.	8r	.	8r	.	16f'/LL	.
.	.	.	.	.	.	16g'/	.
.	.	8e'\L	p	8g'/	p	16a'/	.
.	.	.	.	.	.	16bn'/JJ	.
4r	.	8e'\	.	8g'/L	.	16cc\LL	.
.	.	.	.	.	.	16b'\	.
.	.	8f'\J	.	8a-'/J	.	16cc'\	.
.	.	.	.	.	.	16b'\JJ	.
=211	=211	=211	=211	=211	=211	=211	=211
16r	.	4e\	.	4g/	.	4cc\	.
16C'\LL	.	.	.	.	.	.	.
16D'\	p	.	.	.	.	.	.
16E'\JJ	.	.	.	.	.	.	.
16F'\LL	.	8r	.	8r	.	8r	.
16G'\	.	.	.	.	.	.	.
16A'\	.	8c'\	.	8g'/L	.	8ee'\L	.
16Bn'\JJ	.	.	.	.	.	.	.
16c'\LL	.	8c'\L	.	8g'/	.	8ee'\	.
16B'\	.	.	.	.	.	.	.
16c'\	.	8c'\J	.	8a-'/J	.	8ff'\J	.
16B'\JJ	.	.	.	.	.	.	.
=212	=212	=212	=212	=212	=212	=212	=212
4c\	.	4c\	.	4g/	.	16ee'/LL	.
.	.	.	.	.	.	16c'/	.
.	.	.	.	.	.	16d'/	.
.	.	.	.	.	.	16e'/JJ	.
4r	.	8r	.	8r	.	16f'/LL	.
.	.	.	.	.	.	16g'/	.
.	.	8E'/L	.	8G'/L	.	16a'/	.
.	.	.	.	.	.	16bn'/JJ	.
4r	.	8E'/	.	8G'/	.	16cc'\LL	.
.	.	.	.	.	.	16b'\	.
.	.	8F'/J	.	8A-'/J	.	16cc'\	.
.	.	.	.	.	.	16b'\JJ	.
=213	=213	=213	=213	=213	=213	=213	=213
16r	.	4E/	.	4G/	.	4cc\	.
16C'\LL	.	.	.	.	.	.	.
16D'\	.	.	.	.	.	.	.
16E'\JJ	.	.	.	.	.	.	.
16F'\LL	.	8r	.	8r	.	8r	.
16G'\	.	.	.	.	.	.	.
16A'\	.	8c'\L	.	8g'/L	.	8ee'\L	.
16Bn'\JJ	.	.	.	.	.	.	.
16c'\LL	.	8c'\	.	8g'/	.	8ee'\	.
16B'\	.	.	.	.	.	.	.
16c'\	.	8c'\J	.	8a-'/J	.	8ff'\J	.
16B'\JJ	.	.	.	.	.	.	.
=214	=214	=214	=214	=214	=214	=214	=214
4c\	.	4c\	.	4g/	.	16ee/LL	.
.	.	.	.	.	.	16c/	.
.	.	.	.	.	.	16d/	.
.	.	.	.	.	.	16e/JJ	.
8r	.	8r	.	8r	.	16f/LL	.
.	.	.	.	.	.	16g/	.
8c'\L	.	8g'\L	.	8ee'\	.	16a/	.
.	.	.	.	.	.	16bn/JJ	.
8c'\	.	8g'\	.	8ee'\L	.	16cc\LL	.
.	.	.	.	.	.	16b\	.
8F'\J	.	8a-'\J	.	8ff'\J	.	16cc\	.
.	.	.	.	.	.	16b\JJ	.
=215	=215	=215	=215	=215	=215	=215	=215
16c'/LL	ff	16g\	ff	16ee'\LL	ff	16cc\LL	ff
16CC'/	.	16C/LL	.	16c/	.	16cc\	.
16DD/	.	16D/	.	16d/	.	16dd\	.
16EE'/JJ	.	16E/JJ	.	16e/JJ	.	16ee\JJ	.
16FF'/LL	.	16F/LL	.	16f/LL	.	16ff\LL	.
16GG'/	.	16G/	.	16g/	.	16gg\	.
16AA'/	.	16A/	.	16a/	.	16aa\	.
16BBn'/JJ	.	16Bn/JJ	.	16bn/JJ	.	16bbn\JJ	.
16C'/LL	.	16c/LL	.	16cc\LL	.	16ccc\LL	.
16BB/	.	16B/	.	16b\	.	16bb\	.
16C/	.	16c/	.	16cc\	.	16ccc\	.
16BB/JJ	.	16B/JJ	.	16b\JJ	.	16bb\JJ	.
=216	=216	=216	=216	=216	=216	=216	=216
4C'/	.	4c\	.	4cc\	.	8ccc\	.
.	.	.	.	.	.	4ccc\	.
4r	.	4r	.	4r	.	.	.
.	.	.	.	.	.	4ccc\	.
4r	.	4r	.	4r	.	.	.
.	.	.	.	.	.	[8ccc\	.
=217	=217	=217	=217	=217	=217	=217	=217
2.r	.	2.r	.	2.r	.	8ccc\]	.
.	.	.	.	.	.	4ccc#\	.
.	.	.	.	.	.	4ccc#\	.
.	.	.	.	.	.	8ccc#\	.
=218	=218	=218	=218	=218	=218	=218	=218
2.r	.	2.r	.	2.r	.	&(8ddd\&)	.
.	.	.	.	.	.	8ddd\L	p
.	.	.	.	.	.	&(8bb-\J&)	.
.	.	.	.	.	.	8bb-\L	.
.	.	.	.	.	.	&(8gg\J&)	.
.	.	.	.	.	.	8gg\	.
=219	=219	=219	=219	=219	=219	=219	=219
2.r	.	4r	.	4r	.	&(8ee\&)	.
.	.	.	.	.	.	8ee\L	.
.	.	4r	.	4r	.	&(8cc\J&)	.
.	.	.	.	.	.	8cc\L	.
.	.	8b-\L	.	8cc'\L	p	&(8ee\J&)	.
.	.	(8b-\J	p	[8cc\J	.	8ee\	.
=220	=220	=220	=220	=220	=220	=220	=220
2.r	.	8a\L)	.	8cc\]	.	&(8ff\&)	.
.	.	(8a\J	.	8cc\L	.	8ff\L	.
.	.	8g\L)	.	8ee\J	.	&(8gg\J&)	.
.	.	(8g\J	.	8ee\L	.	8gg\L	.
.	.	8f\L)	.	8ff\J	.	&(8aa\J&)	.
.	.	(8f\J	.	8ff\	.	8aa\	.
=221	=221	=221	=221	=221	=221	=221	=221
2.r	.	4.e\)	.	4aa\	.	4ccc\	.
.	.	.	.	8gg\	.	&(8bb-\&)	.
.	.	8r	.	8r	.	8r	.
.	.	8a'\L	.	4r	.	4r	.
.	.	(8a\J	.	.	.	.	.
=222	=222	=222	=222	=222	=222	=222	=222
2.r	.	8b-\	.	2.r	.	2.r	.
.	.	8b-\L	.	.	.	.	.
.	.	&(8g\J&)	.	.	.	.	.
.	.	8g\L	.	.	.	.	.
.	.	&(8e\J&)	.	.	.	.	.
.	.	8e\	.	.	.	.	.
=223	=223	=223	=223	=223	=223	=223	=223
2.r	.	&(8c#\L&)	.	4r	.	4r	.
.	.	8c#\J	.	.	.	.	.
.	.	&(8a\L&)	.	4r	.	4r	.
.	.	8a\J	.	.	.	.	.
.	.	&(8g\L&)	.	4ee\	.	4ccc#\	p
.	.	8g\J	.	.	.	.	.
=224	=224	=224	=224	=224	=224	=224	=224
2.r	.	&(8f\&)	.	4ff\	.	4ddd\	.
.	.	8f\L	.	.	.	.	.
.	.	&(8d\J&)	.	4aa\	.	4fff\	.
.	.	8d\L	.	.	.	.	.
.	.	&(8g\J&)	.	4dd\	.	&(4bbn\&)	.
.	.	8g\	.	.	.	.	.
=225	=225	=225	=225	=225	=225	=225	=225
4r	.	&(4.c\&)	.	4ff\	.	4ddd\	.
8r	.	.	.	8ee\	.	&(8ccc\&)	.
8Bn\L	.	8r	.	8r	.	8r	.
8c\	.	4r	.	4r	.	4r	.
8c#\J	.	.	.	.	.	.	.
=226	=226	=226	=226	=226	=226	=226	=226
&(8d\&)	.	2.r	.	2.r	.	2.r	.
8d\L	.	.	.	.	.	.	.
&(8B-\J&)	.	.	.	.	.	.	.
8B-\L	.	.	.	.	.	.	.
&(8G\J&)	.	.	.	.	.	.	.
8G\	.	.	.	.	.	.	.
=227	=227	=227	=227	=227	=227	=227	=227
&(8E\&)	.	4r	.	4r	.	4r	.
8E\L	.	.	.	.	.	.	.
&(8C\J&)	.	4r	.	4r	.	4r	.
8C\L	.	.	.	.	.	.	.
&(8E\J&)	.	8g'\L	.	8cc'\L	.	8bb-'\L	.
8E\	.	8g\J	.	[8cc\J	.	8bb-\J	.
=228	=228	=228	=228	=228	=228	=228	=228
&(8F\&)	.	&(8f\&)	.	8cc\]	.	8aa\	.
8F\L	.	8f\L	.	8cc\L	.	8aa\L	.
&(8G\J&)	.	&(8e\J&)	.	8b-\J	.	8gg\J	.
8G\L	.	8e\L	.	8b-/L	.	8gg\L	.
&(8A\J&)	.	&(8c\J&)	.	8a/J	.	8ff\J	.
8A\	.	8c\	.	8a/	.	8ff\	.
=229	=229	=229	=229	=229	=229	=229	=229
4.B-\	.	4.d-\	.	4.g/	.	4ff\	.
.	.	.	.	.	.	4ee\	.
8r	.	8r	.	8r	.	.	.
4r	.	4r	.	8cc'\L	.	4r	.
.	.	.	.	8cc\J	.	.	.
=230	=230	=230	=230	=230	=230	=230	=230
2.r	.	4r	.	8dd-\	.	4r	.
.	.	.	.	8dd-\L	.	.	.
.	.	8dd-'\	.	8b-\J	.	4r	.
.	.	8dd-\L	.	8b-/L	.	.	.
.	.	&(8b-\J&)	.	8g/J	.	[4ddd-\	.
.	.	8b-\	.	8g/	.	.	.
=231	=231	=231	=231	=231	=231	=231	=231
2.r	.	&(8g\&)	.	8e/	.	4ddd-\]	.
.	.	8g\L	.	8e/L	.	.	.
.	.	&(8a-\J&)	.	8f/J	.	4ccc\	.
.	.	8f\L	.	4aa-\	.	.	.
.	.	&(8B-\J&)	.	.	.	4fff\	.
.	.	8B-/	.	8aa-\	.	.	.
=232	=232	=232	=232	=232	=232	=232	=232
2.r	.	&(8c\&)	.	2aa-\	.	2fff\	.
.	.	8c\L	.	.	.	.	.
.	.	&(8cc\J&)	.	.	.	.	.
.	.	8cc\L	.	.	.	.	.
.	.	&(8c\J&)	.	8.bb-\L	.	8.ggg\L	.
.	.	8c\	.	.	.	.	.
.	.	.	.	16gg\Jk	.	16eee\Jk	.
=233	=233	=233	=233	=233	=233	=233	=233
*clefC4	*clefG2	*	*	*	*	*	*
4.c\	.	8f/L	.	8ff/L	.	4fff\	.
.	.	8F'/	p	8A'/J	.	.	.
.	.	8F'/	.	8A'/L	p	4r	.
16d\LL	p	8F'/	.	8A'/J	.	.	.
&(16c\JJ&)	.	.	.	.	.	.	.
8Bn'\L	.	8F'/	.	8A'/L	.	4r	.
8c'\J	.	8F'/J	.	8A'/J	.	.	.
=234	=234	=234	=234	=234	=234	=234	=234
2.c\	.	2.F/	.	2.A/	.	4.aa\	.
.	.	.	.	.	.	16bb-\LL	p
.	.	.	.	.	.	16aa\JJ	.
.	.	.	.	.	.	8gg'\L	.
.	.	.	.	.	.	8ff'\J	.
=235	=235	=235	=235	=235	=235	=235	=235
4.c\	.	2.G/	.	2.B-/	.	4ee\	.
.	.	.	.	.	.	4r	.
16d\LL	.	.	.	.	.	.	.
&(16c\JJ&)	.	.	.	.	.	.	.
8Bn'\L	.	.	.	.	.	4r	.
8c'\J	.	.	.	.	.	.	.
=236	=236	=236	=236	=236	=236	=236	=236
2.c\	.	2.G/	.	8B-/L 8e/	.	4.bb-\	.
.	.	.	.	8B-/ 8e/	.	.	.
.	.	.	.	8B-/ 8e/	.	.	.
.	.	.	.	8B-/ 8e/	.	16ccc\LL	.
.	.	.	.	.	.	16bb-\JJ	.
.	.	.	.	8B-/ 8e/	.	8aa'\L	.
.	.	.	.	8B-/J 8e/	.	8gg'\J	.
=237	=237	=237	=237	=237	=237	=237	=237
4.c\	.	2.A/	.	8c/L	.	4ff#\	.
.	.	.	.	8c/ 8f#/	.	.	.
.	.	.	.	8c/ 8f#/	.	4r	.
16d\LL	.	.	.	8c/ 8f#/	.	.	.
&(16c\JJ&)	.	.	.	.	.	.	.
8Bn'\L	.	.	.	8c/ 8f#/	.	4r	.
8c'\J	.	.	.	8c/J 8f#/	.	.	.
=238	=238	=238	=238	=238	=238	=238	=238
2e-\	f	2.A/	.	2.c/ 2.f#/	.	[4eee-\	f
.	.	.	.	.	.	8eee-\L]	.
.	.	.	.	.	.	16ddd\L	.
.	.	.	.	.	.	16ccc\JJ	.
&(4c\&)	.	.	.	.	.	16bb-\LL	.
.	.	.	.	.	.	16aa\	.
.	.	.	.	.	.	16gg\	.
.	.	.	.	.	.	16ff#\JJ	.
=239	=239	=239	=239	=239	=239	=239	=239
4d\	.	4B-/	f	4g/	f	16gg'\LL	.
.	.	.	.	.	.	16dd'\	.
.	.	.	.	.	.	16ee'\	.
.	.	.	.	.	.	16ff#'\JJ	.
*clefF4	*clefF4	*	*	*	*	*	*
4BB-/	.	4d\	.	4B-/ 4g/	.	16gg'\LL	.
.	.	.	.	.	.	16aa'\	.
.	.	.	.	.	.	16bb-'\	.
.	.	.	.	.	.	16aa'\JJ	.
4r	.	4r	.	4r	.	16gg'\LL	.
.	.	.	.	.	.	16dd'\	.
.	.	.	.	.	.	16ee'\	.
.	.	.	.	.	.	16ff#'\JJ	.
=240	=240	=240	=240	=240	=240	=240	=240
2.r	.	2.r	.	2.r	.	16gg\LL	.
.	.	.	.	.	.	16aa\	.
.	.	.	.	.	.	16bb-\	.
.	.	.	.	.	.	16aa\JJ	.
.	.	.	.	.	.	16gg\LL	.
.	.	.	.	.	.	16dd\	.
.	.	.	.	.	.	16ee\	.
.	.	.	.	.	.	16ff#\JJ	.
.	.	.	.	.	.	16gg\LL	.
.	.	.	.	.	.	16aa\	.
.	.	.	.	.	.	16bb-\	.
.	.	.	.	.	.	16aa\JJ	.
=241	=241	=241	=241	=241	=241	=241	=241
4r	.	4r	.	4r	.	16gg\LL	.
.	.	.	.	.	.	16dd\	.
.	.	.	.	.	.	16ee\	.
.	.	.	.	.	.	16ff#\JJ	.
4r	.	4r	.	4r	.	16gg\LL	.
.	.	.	.	.	.	16aa\	.
.	.	.	.	.	.	16bb-\	.
.	.	.	.	.	.	16aa\JJ	.
16r	.	16r	.	16r	.	16gg\LL	.
16D\LL	.	16D/LL	.	16d/LL	.	16dd\	.
16E\	.	16E/	.	16e/	.	16ee\	.
16F#\JJ	.	16F#/JJ	.	16f#/JJ	.	16ff#\JJ	.
=242	=242	=242	=242	=242	=242	=242	=242
16G\LL	.	16G/LL	.	16g/LL	.	16gg\LL	.
16A\	.	16A/	.	16a/	.	16aa\	.
16B-\	.	16B-/	.	16b-/	.	16bb-\	.
16c\JJ	.	16c/JJ	.	16cc/JJ	.	16ccc\JJ	.
16d\LL	.	16d/LL	.	16dd\LL	.	16ddd\LL	.
16c\	.	16c/	.	16cc\	.	16ccc\	.
16B-\	.	16B-/	.	16b-\	.	16bb-\	.
16A\JJ	.	16A/JJ	.	16a\JJ	.	16aa\JJ	.
16G\LL	.	16G/LL	.	16g/LL	.	16gg\LL	.
16F\	.	16F/	.	16f/	.	16ff\	.
16E\	.	16E/	.	16e/	.	16ee\	.
16D\JJ	.	16D/JJ	.	16d/JJ	.	16dd\JJ	.
=243	=243	=243	=243	=243	=243	=243	=243
4.C/	.	4.C/	.	4.c/	.	2.cc\	.
16D\LL	f	16D/LL	f	16d/LL	f	.	.
16E\JJ	.	16E/JJ	.	16e/JJ	.	.	.
16F\LL	.	16F/LL	.	16f/LL	.	.	.
16G\	.	16G/	.	16g/	.	.	.
16A\	.	16A/	.	16a/	.	.	.
&(16Bn\JJ&)	.	&(16Bn/JJ&)	.	16bn/JJ	.	.	.
=244	=244	=244	=244	=244	=244	=244	=244
8c\L	.	8c/L	.	8cc/L	.	2.gg\	f
8C\	.	8B-/	.	8e/	.	.	.
8C\	.	8B-/	.	8e/	.	.	.
8C\	.	8B-/	.	8e/	.	.	.
8C\	.	8B-/	.	8e/	.	.	.
8C\J	.	8B-/J	.	8e/J	.	.	.
=245	=245	=245	=245	=245	=245	=245	=245
4F'\	.	4A'/	.	4f'/	.	4ff'\	.
4r	.	4.A/	.	4.c/	.	4.f/	.
4r	.	.	.	.	.	.	.
.	.	&(8G/&)	.	8c'/	.	8e/	.
=246	=246	=246	=246	=246	=246	=246	=246
2.r	.	8G/L	.	8c/L	.	8e/L	.
.	.	&(8E/&)	.	8g/	.	8b-/J	.
.	.	8E/	.	8g/	.	8b-/L	.
.	.	&(8F/&)	.	8f/	.	8a/J	.
.	.	8F/	.	8f/	.	8a\L	.
.	.	&(8B-/J&)	.	8f/J	.	8dd\J	.
=247	=247	=247	=247	=247	=247	=247	=247
2.r	.	8B-/L	.	8f/L	.	8dd\L	.
.	.	&(8A/J&)	.	8f/	.	8cc\	.
.	.	8A\L	.	8f/	.	8cc\	.
.	.	&(8b-\&)	.	8cc/	.	8ff\	.
.	.	8b-\	.	8cc/	.	8ff\	.
.	.	&(8g\J&)	.	8b-/J	.	8ee\J	.
=248	=248	=248	=248	=248	=248	=248	=248
2.r	.	8g\L	.	8b-/L	.	8ee\L	.
.	.	&(8e\J&)	.	8g/J	.	8bb-\J	.
.	.	4e\	.	4g/	.	4bb-\	.
.	.	4r	.	4r	.	4r	.
=249	=249	=249	=249	=249	=249	=249	=249
2.r	.	2.r	.	2.r	.	2.r	.
=250	=250	=250	=250	=250	=250	=250	=250
2.F\	.	2.c\	.	2.f/	.	[4a/	.
.	.	.	.	.	.	8a/L]	pp
.	.	.	.	.	.	16b-/L	.
.	.	.	.	.	.	16a/JJ	.
.	.	.	.	.	.	8g'/L	.
.	.	.	.	.	.	8a'/J	.
=251	=251	=251	=251	=251	=251	=251	=251
[2.BB-/	pp	[2.G/	pp	[2.f/	pp	[2.dd\	.
=252	=252	=252	=252	=252	=252	=252	=252
4BB-/]	.	4G/]	.	4f/]	.	4dd\]	.
&(4C'/&)	.	4A'/	.	4f'/	.	4cc'\	.
4CC'/	.	4G'/	.	4B-'/	.	4e'/	.
=253	=253	=253	=253	=253	=253	=253	=253
4FF'/	.	&(4F'/&)	.	4A/	.	4f'/	.
4r	.	4.a\	.	4.cc\	.	4.ff\	.
4r	.	.	.	.	.	.	.
.	.	&(8g\&)	.	8b-\	.	8ee\	.
=254	=254	=254	=254	=254	=254	=254	=254
2.r	.	8g\L	.	8b-\L	.	8ee\L	.
.	.	&(8e\J&)	.	8g\	.	8bb-\	.
.	.	8e\L	.	8g\	.	8bb-\	.
.	.	&(8f\J&)	.	8a\	.	8aa\	.
.	.	8f\L	.	8a\	.	8aa\	.
.	.	&(8b-\J&)	.	8ff\J	.	8ddd\J	.
=255	=255	=255	=255	=255	=255	=255	=255
2.r	.	8b-\L	.	8ff\L	.	8dd\L	.
.	.	&(8a\J&)	.	8ff\	.	8cc\J	.
.	.	8A\L	.	8ff\	.	8cc\L	.
.	.	&(8a\J&)	.	8cc\	.	8ff\J	.
.	.	8a\L	.	8cc\	.	8ff\L	.
.	.	&(8g\J&)	.	8b-\J	.	8ee\J	.
=256	=256	=256	=256	=256	=256	=256	=256
2.r	.	8g\L	.	8b-\L	.	8eee\L	.
.	.	&(8e\J&)	.	8aa\J	.	8bbb-\J	.
.	.	4e\	.	4gg\	.	4bbb-\	.
.	.	4r	.	4r	.	4r	.
=257	=257	=257	=257	=257	=257	=257	=257
2.r	.	2.r	.	2.r	.	2.r	.
=258	=258	=258	=258	=258	=258	=258	=258
2.F\	.	2.f\	.	2.c/	.	2.A-/ 2.a-/	.
=259	=259	=259	=259	=259	=259	=259	=259
2.D-\	.	2.d-\	.	2.f/	.	2.A-/ 2.a-/	.
=260	=260	=260	=260	=260	=260	=260	=260
2BBn/	.	2Bn/	.	2d/ 2f/	.	2A-/ 2a-/	.
4BB-/	.	4B-/	.	4d/ 4f/	.	4A-/ 4a-/	.
=261	=261	=261	=261	=261	=261	=261	=261
4AA'/	.	4A'/	.	4d'/ 4f'/	.	4An/ 4an/	.
4GG'/	ff	4d'\	ff	4g'/	ff	4b-'\	ff
4C'/	.	4B-'/	.	4e'/	.	4g'/	.
=262	=262	=262	=262	=262	=262	=262	=262
4.F\	.	8A/L	.	8f/L	.	4f'/	.
.	.	8c/	p	8A/J 8f/	p	.	.
.	.	8c/	.	8A/L 8f/	.	4r	.
16G\LL	p	8c/	.	8A/J 8f/	.	.	.
&(16F\JJ&)	.	.	.	.	.	.	.
8E'\L	.	8c/	.	8A/L 8f/	.	4r	.
8F'\J	.	8c/J	.	8A/J 8f/	.	.	.
=263	=263	=263	=263	=263	=263	=263	=263
4FF/	.	2.c\	.	2.A/ 2.f/	.	4r	.
4r	.	.	.	.	.	4a/	.
4r	.	.	.	.	.	4a/	p
=264	=264	=264	=264	=264	=264	=264	=264
.	.	.	.	.	.	gq/LL	.
.	.	.	.	.	.	aq/JJ	.
4.F\	.	2.c\	.	2.B-/ 2.g/	.	4cc\	.
.	.	.	.	.	.	4b-\	.
16G\LL	.	.	.	.	.	.	.
&(16F\JJ&)	.	.	.	.	.	.	.
8E'\L	.	.	.	.	.	4r	.
8F'\J	.	.	.	.	.	.	.
=265	=265	=265	=265	=265	=265	=265	=265
4FF/	.	2.c\	.	2.B-/ 2.g/	.	4r	.
4r	.	.	.	.	.	4ee\	.
4r	.	.	.	.	.	4ee\	.
=266	=266	=266	=266	=266	=266	=266	=266
.	.	.	.	.	.	ddq/LL	.
.	.	.	.	.	.	eeq/JJ	.
16G\LL	.	2.c\	.	8A/L 8f/	.	8ff\L	.
16F\	.	.	.	.	.	.	.
16E\	.	.	.	8f/ 8a/	.	8aa\J	.
&(16F\JJ&)	.	.	.	.	.	.	.
16G\LL	.	.	.	8f/ 8a/	.	4cc\	.
16F\	.	.	.	.	.	.	.
16E\	.	.	.	8f/ 8a/	.	.	.
&(16F\JJ&)	.	.	.	.	.	.	.
16G\LL	.	.	.	8f/ 8a/	.	4r	.
16F\	.	.	.	.	.	.	.
16E\	.	.	.	8f/J 8a/	.	.	.
&(16F\JJ&)	.	.	.	.	.	.	.
=267	=267	=267	=267	=267	=267	=267	=267
4FF/	.	2.c\	.	2.f/ 2.a/	.	16bb-\LL	.
.	.	.	.	.	.	16aa\	.
.	.	.	.	.	.	16gg\	.
.	.	.	.	.	.	16aa\JJ	.
4r	.	.	.	.	.	16bb-\LL	.
.	.	.	.	.	.	16aa\	.
.	.	.	.	.	.	16gg\	.
.	.	.	.	.	.	16aa\JJ	.
4r	.	.	.	.	.	16bb-\LL	.
.	.	.	.	.	.	16aa\	.
.	.	.	.	.	.	16gg\	.
.	.	.	.	.	.	16aa\JJ	.
=268	=268	=268	=268	=268	=268	=268	=268
16G\LL	.	2.c\	.	2.g/ 2.b-/	.	4ccc\	.
16F\	.	.	.	.	.	.	.
16E\	.	.	.	.	.	.	.
&(16F\JJ&)	.	.	.	.	.	.	.
16G\LL	.	.	.	.	.	4bb-\	.
16F\	.	.	.	.	.	.	.
16E\	.	.	.	.	.	.	.
&(16F\JJ&)	.	.	.	.	.	.	.
16G\LL	.	.	.	.	.	4r	.
16F\	.	.	.	.	.	.	.
16E\	.	.	.	.	.	.	.
16F\JJ	.	.	.	.	.	.	.
=269	=269	=269	=269	=269	=269	=269	=269
4FF/	.	2.c\	.	2.g/ 2.b-/	.	16fff\LL	.
.	.	.	.	.	.	16eee\	.
.	.	.	.	.	.	16ddd\	.
.	.	.	.	.	.	16eee\JJ	.
4r	.	.	.	.	.	16fff\LL	.
.	.	.	.	.	.	16eee\	.
.	.	.	.	.	.	16ddd\	.
.	.	.	.	.	.	16eee\JJ	.
4r	.	.	.	.	.	16fff\LL	.
.	.	.	.	.	.	16eee\	.
.	.	.	.	.	.	16ddd\	.
.	.	.	.	.	.	16eee\JJ	.
=270	=270	=270	=270	=270	=270	=270	=270
4FF'/	.	4c'\	.	4f'/ 4a'/	.	8fff'\L	.
.	.	.	.	.	.	16eee'\L	.
.	.	.	.	.	.	16ddd'\JJ	.
4F'\	.	4c'\	.	4f'/ 4a'/	.	16ccc'\LL	.
.	.	.	.	.	.	16bb-'\	.
.	.	.	.	.	.	16aa'\	.
.	.	.	.	.	.	16gg'\JJ	.
4r	.	4r	.	4r	.	16ff'\LL	.
.	.	.	.	.	.	16ccc'\	.
.	.	.	.	.	.	16bb-'\	.
.	.	.	.	.	.	16aa'\JJ	.
=271	=271	=271	=271	=271	=271	=271	=271
2.r	.	2.r	.	2.r	.	16gg\LL	.
.	.	.	.	.	.	16ff\	.
.	.	.	.	.	.	16ee\	.
.	.	.	.	.	.	16dd\JJ	.
.	.	.	.	.	.	16cc\LL	.
.	.	.	.	.	.	16aa\	.
.	.	.	.	.	.	16gg\	.
.	.	.	.	.	.	16ff\JJ	.
.	.	.	.	.	.	16ee\LL	.
.	.	.	.	.	.	16dd\	.
.	.	.	.	.	.	16cc\	.
.	.	.	.	.	.	16b-\JJ	.
=272	=272	=272	=272	=272	=272	=272	=272
16r	.	16r	.	16r	.	16a\LL	.
16F\LL	.	16f\LL	.	16ff\LL	.	16ff\	.
16E\	.	16e\	.	16ee\	.	16ee\	.
16D\JJ	.	16d\JJ	.	16dd\JJ	.	16dd\JJ	.
16C/LL	.	16c/LL	.	16cc/LL	.	16cc/LL	.
16BB-/	.	16B-/	.	16b-/	.	16b-/	.
16AA/	.	16A/	.	16a/	.	16a/	.
16GG/JJ	.	16G/JJ	.	16g/JJ	.	16g/JJ	.
16FF/LL	.	16F/LL	.	16f\LL	.	16f\LL	.
16F/	.	16f/	.	16ff\	.	16ff\	.
16E/	.	16e/	.	16ee\	.	16ee\	.
16D/JJ	.	16d/JJ	.	16dd\JJ	.	16dd\JJ	.
=273	=273	=273	=273	=273	=273	=273	=273
16C/LL	.	16c/LL	.	16cc/LL	.	16cc/LL	.
16BB-/	.	16B-/	.	16b-/	.	16b-/	.
16AA/	.	16A/	.	16a/	.	16a/	.
16GG/JJ	.	16G/JJ	.	16g/JJ	.	16g/JJ	.
16FF/LL	.	16F/LL	.	16f/LL	.	16f/LL	.
16EE/	.	16E/	.	16e/	.	16e/	.
16FF/	.	16F/	.	16f/	.	16f/	.
&(16EE/JJ&)	.	16E/JJ	.	16e/JJ	.	16e/JJ	.
16FF/LL	.	16F/LL	.	16f/LL	.	16f/LL	.
16EE/	.	16E/	.	16e/	.	16e/	.
16FF/	.	16F/	.	16f/	.	16f/	.
&(16EE/JJ&)	.	&(16E/JJ&)	.	16e/JJ	.	16e/JJ	.
=274	=274	=274	=274	=274	=274	=274	=274
4FF'/	.	4F'/	.	4f'/	.	4f'/	.
4GG'/	ff	4G'/	ff	4g'/	ff	4g'/	ff
4AA'/	.	4A'/	.	4a'/	.	4a'/	.
=275	=275	=275	=275	=275	=275	=275	=275
4BB-'/	.	4B-'/	.	4B-'/	.	4b-'\	.
4C'/	.	4c'\	.	4c'/	.	4cc'\	.
4D'\	.	4d'\	.	4d'/	.	4dd'\	.
=276	=276	=276	=276	=276	=276	=276	=276
[2.E-\	.	[2.e-\	.	[2.e-/	.	[2.ee-\	.
=277	=277	=277	=277	=277	=277	=277	=277
2.E-;\]	.	2.e-;\]	.	2.e-;/]	.	2.ee-;\]	.
=278	=278	=278	=278	=278	=278	=278	=278
4DD'/	.	4D'/	.	4d'/	.	4d'/	.
4EE'/	ff	4E'/	ff	4e'/	ff	4e'/	ff
4FF#'/	.	4F#'/	.	4f#'/	.	4f#'/	.
=279	=279	=279	=279	=279	=279	=279	=279
4GG'/	.	4G'/	.	4G'/	.	4g'/	.
4AA'/	.	4A'/	.	4A'/	.	4a'/	.
4BB-'/	.	4B-'/	.	4B-'/	.	4b-'\	.
=280	=280	=280	=280	=280	=280	=280	=280
[2.C/	.	[2.c\	.	[2.c/	.	[2.cc\	.
=281	=281	=281	=281	=281	=281	=281	=281
2.C;/]	.	2.c;\]	.	2.c;/]	.	2.cc;\]	.
=282	=282	=282	=282	=282	=282	=282	=282
2.r	.	2.r	pp	4G'/	.	8ff'\L	pp
.	.	.	.	.	.	16gg\L	.
.	.	.	.	.	.	16ff\JJ	.
.	.	.	.	4A'/	.	8ee'\L	.
.	.	.	.	.	.	16ff\L	.
.	.	.	.	.	.	16ee\JJ	.
.	.	.	.	4Bn'/	.	8dd\L	.
.	.	.	.	.	.	16ee\L	.
.	.	.	.	.	.	16dd\JJ	.
=283	=283	=283	=283	=283	=283	=283	=283
2.r	.	2.r	.	4c'/	.	8cc'\L	.
.	.	.	.	.	.	16dd\L	.
.	.	.	.	.	.	16cc\JJ	.
.	.	.	.	4d'/	.	8b-\L	.
.	.	.	.	.	.	16cc\L	.
.	.	.	.	.	.	16b-\JJ	.
.	.	.	.	4e'/	.	8a'/L	.
.	.	.	.	.	.	16b-/L	.
.	.	.	.	.	.	16a/JJ	.
=284	=284	=284	=284	=284	=284	=284	=284
2.r	.	2.r	.	4f/	.	4.g/	.
.	.	.	.	4d/	.	.	.
.	.	.	.	.	.	16a/LL	.
.	.	.	.	.	.	16g/JJ	.
.	.	.	.	4Bn/	.	8f#'/L	.
.	.	.	.	.	.	8g'/J	.
=285	=285	=285	=285	=285	=285	=285	=285
4BBn/	.	4.G/	.	4G/	.	4ddd\	.
4D/	pp	.	.	4r	.	4bbn\	.
.	.	16A/LL	pp	.	.	.	.
.	.	&(16G/JJ&)	.	.	.	.	.
&(4GG/&)	.	8F#'/L	.	4r	.	4ff\	.
.	.	8G'/J	.	.	.	.	.
=286	=286	=286	=286	=286	=286	=286	=286
4C/	.	4C'/	.	8b-'\L	.	4ee\	.
.	.	.	.	16cc\L	pp	.	.
.	.	.	.	16b-\JJ	.	.	.
4r	.	4D'/	.	8a'/L	.	4r	.
.	.	.	.	16b-/L	.	.	.
.	.	.	.	16a/JJ	.	.	.
4r	.	4E'/	.	8g/L	.	4r	.
.	.	.	.	16a/L	.	.	.
.	.	.	.	16g/JJ	.	.	.
=287	=287	=287	=287	=287	=287	=287	=287
2.r	.	4F'/	.	8f'/L	.	2.r	.
.	.	.	.	16g/L	.	.	.
.	.	.	.	16f/JJ	.	.	.
.	.	4G'/	.	8e'/L	.	.	.
.	.	.	.	16f/L	.	.	.
.	.	.	.	16e/JJ	.	.	.
.	.	4A'/	.	8d'/L	.	.	.
.	.	.	.	16e/L	.	.	.
.	.	.	.	16d/JJ	.	.	.
=288	=288	=288	=288	=288	=288	=288	=288
2.r	.	4B-/	.	4.c/	.	2.r	.
.	.	4G/	.	.	.	.	.
.	.	.	.	16d/LL	.	.	.
.	.	.	.	16c'/JJ	.	.	.
.	.	&(4D/&)	.	8Bn'/L	.	.	.
.	.	.	.	8c'/J	.	.	.
=289	=289	=289	=289	=289	=289	=289	=289
4CC/	.	4.C/	.	4b-\	.	4gg\	.
4EE/	.	.	.	4r	.	4ee\	.
.	.	16d\LL	.	.	.	.	.
.	.	&(16c\JJ&)	.	.	.	.	.
&(4GG/&)	.	8Bn'/L	.	4r	.	4b-\	.
.	.	8c'/J	.	.	.	.	.
=290	=290	=290	=290	=290	=290	=290	=290
4C/	.	4c/	.	4.c/	.	4f/ 4a/	.
4r	.	4A/	.	.	.	4r	.
.	.	.	.	16d/LL	.	.	.
.	.	.	.	16c/JJ	.	.	.
4r	.	&(4F/&)	.	8Bn'/L	.	4r	.
.	.	.	.	8c'/J	.	.	.
=291	=291	=291	=291	=291	=291	=291	=291
4CC/	.	4.C/	.	4a/	.	4aa\	.
4FF/	.	.	.	4r	.	4ff\	.
.	.	&(16d\LL&)	.	.	.	.	.
.	.	16c\JJ	.	.	.	.	.
&(4AA/&)	.	8Bn'/L	.	4r	.	4cc\	.
.	.	8c'/J	.	.	.	.	.
=292	=292	=292	=292	=292	=292	=292	=292
4C/	.	4g\	.	2.r	.	4.b-\	.
4r	.	4e\	.	.	.	.	.
.	.	.	.	.	.	16cc\LL	.
.	.	.	.	.	.	16b-\JJ	.
4r	.	&(4c\&)	.	.	.	8a'/L	.
.	.	.	.	.	.	8b-'/J	.
=293	=293	=293	=293	=293	=293	=293	=293
4CC/	.	4ee\	.	4gg\	.	4bb-\	.
4C/	.	4b-\	.	4ee\	.	4gg\	.
&(4C#/&)	.	&(4g\&)	.	4bn\	.	4ee\	.
=294	=294	=294	=294	=294	=294	=294	=294
2.D\	.	2.f\	.	2.a/	.	[4ff\	.
.	.	.	.	.	.	8ff\L]	.
.	.	.	.	.	.	16gg\L	.
.	.	.	.	.	.	16ff\JJ	.
.	.	.	.	.	.	8ee'\L	.
.	.	.	.	.	.	8ff'\J	.
=295	=295	=295	=295	=295	=295	=295	=295
2.E\	.	2.B-/	.	2.cc#\	.	2.gg\	.
=296	=296	=296	=296	=296	=296	=296	=296
2.F#\	.	2.e-\	.	2.cc\	.	[4aa\	.
.	.	.	.	.	.	8aa\L]	.
.	.	.	.	.	.	16bb-\L	.
.	.	.	.	.	.	16aa\JJ	.
.	.	.	.	.	.	8gg'\L	.
.	.	.	.	.	.	8aa'\J	.
=297	=297	=297	=297	=297	=297	=297	=297
2.G\	.	2.d\	.	2.b-\	.	2.bb-\	.
=298	=298	=298	=298	=298	=298	=298	=298
2.A\	.	2.g\	.	2.ee-\	.	[4ccc\	.
.	.	.	.	.	.	8ccc\L]	.
.	.	.	.	.	.	16ddd\L	.
.	.	.	.	.	.	16ccc\JJ	.
.	.	.	.	.	.	8bb-'\L	.
.	.	.	.	.	.	8ccc'\J	.
=299	=299	=299	=299	=299	=299	=299	=299
2.Bn\	.	2.f\	.	2.a-/	.	2.ddd\	.
=300	=300	=300	=300	=300	=300	=300	=300
2.c\	.	4.f\	.	4.an/	.	4r	.
.	.	.	.	.	.	4cc\	.
.	.	16g\LL	pp	16b-/LL	pp	.	.
.	.	&(16f\JJ&)	.	16a/JJ	.	.	.
.	.	8e'\L	.	8g'/L	.	4cc\	pp
.	.	8f'\J	.	8a'/J	.	.	.
=301	=301	=301	=301	=301	=301	=301	=301
2C/	pp	2g\	.	2b-\	.	4.cc\	.
.	.	.	.	.	.	16dd\LL	.
.	.	.	.	.	.	16cc\JJ	.
&(4CC/&)	.	&(4E/&)	.	4G/	.	8bn'\L	.
.	.	.	.	.	.	8cc'\J	.
=302	=302	=302	=302	=302	=302	=302	=302
4.FF/	.	4F'/	.	4A'/	.	4f/	.
.	.	4C'/	pp	4A'/	.	4r	.
16GG/LL	pp	.	.	.	.	.	.
&(16FF/JJ&)	.	.	.	.	.	.	.
8EE'/L	.	4C'/	.	4A'/	.	4r	.
8FF'/J	.	.	.	.	.	.	.
=303	=303	=303	=303	=303	=303	=303	=303
2.FF/	.	2.D-/	.	2.Bn/	.	16f/LL	pp
.	.	.	.	.	.	16e/	.
.	.	.	.	.	.	16d/	.
.	.	.	.	.	.	16e/JJ	.
.	.	.	.	.	.	16f/LL	.
.	.	.	.	.	.	16e/	.
.	.	.	.	.	.	16d/	.
.	.	.	.	.	.	16e/JJ	.
.	.	.	.	.	.	16f/LL	.
.	.	.	.	.	.	16e/	.
.	.	.	.	.	.	16d/	.
.	.	.	.	.	.	16e/JJ	.
=304	=304	=304	=304	=304	=304	=304	=304
4.FF/	.	2.C/	.	4A'/	.	4f'/	.
.	.	.	.	4f'/	.	4a'/	.
16GG/LL	.	.	.	.	.	.	.
&(16FF/JJ&)	.	.	.	.	.	.	.
8EE'/L	.	.	.	4f'/	.	4a'/	.
8FF'/J	.	.	.	.	.	.	.
=305	=305	=305	=305	=305	=305	=305	=305
[2.FF/	.	&(2.D-/&)	.	16f/LL	.	2.b-\	.
.	.	.	.	16e/	.	.	.
.	.	.	.	16d/	.	.	.
.	.	.	.	16e/JJ	.	.	.
.	.	.	.	16f/LL	.	.	.
.	.	.	.	16e/	.	.	.
.	.	.	.	16d/	.	.	.
.	.	.	.	16e/JJ	.	.	.
.	.	.	.	16f/LL	.	.	.
.	.	.	.	16e/	.	.	.
.	.	.	.	16d/	.	.	.
.	.	.	.	16e/JJ	.	.	.
=306	=306	=306	=306	=306	=306	=306	=306
4FF/]	.	4C/	.	4f/	.	4a/	.
4r	.	4f'\	.	8r	.	8r	.
.	.	.	.	16b-/LL	.	16dd-\LL	.
.	.	.	.	16a/JJ	.	16cc\JJ	.
4r	.	4f'\	.	8g'/L	.	8b-'\L	.
.	.	.	.	8a'/J	.	8cc'\J	.
=307	=307	=307	=307	=307	=307	=307	=307
2.r	.	16f\LL	.	2.b-\	.	2.dd-\	.
.	.	16e\	.	.	.	.	.
.	.	16d\	.	.	.	.	.
.	.	16e\JJ	.	.	.	.	.
.	.	16f\LL	.	.	.	.	.
.	.	16e\	.	.	.	.	.
.	.	16d\	.	.	.	.	.
.	.	16e\JJ	.	.	.	.	.
.	.	16f\LL	.	.	.	.	.
.	.	16e\	.	.	.	.	.
.	.	&(16d\&)	.	.	.	.	.
.	.	16e\JJ	.	.	.	.	.
=308	=308	=308	=308	=308	=308	=308	=308
4r	.	4f\	.	4a/	.	4cc\	.
4FF/	.	&(4cc\&)	pp	8r	.	8r	.
.	.	.	.	16gg\LL	pp	16bb-\LL	.
.	.	.	.	16ff\JJ	.	16aa\JJ	pp
4FF/	pp	4cc'\	.	8ee'\L	.	8gg'\L	.
.	.	.	.	8ff'\J	.	8aa'\J	.
=309	=309	=309	=309	=309	=309	=309	=309
16FF/LL	.	2.dd-\	.	2.gg\	.	2.bb-\	.
16EE/	.	.	.	.	.	.	.
16DD/	.	.	.	.	.	.	.
16EE/JJ	.	.	.	.	.	.	.
16FF/LL	.	.	.	.	.	.	.
16EE/	.	.	.	.	.	.	.
16DD/	.	.	.	.	.	.	.
16EE/JJ	.	.	.	.	.	.	.
16FF/LL	.	.	.	.	.	.	.
16EE/	.	.	.	.	.	.	.
16DD/	.	.	.	.	.	.	.
&(16EE/JJ&)	.	.	.	.	.	.	.
=310	=310	=310	=310	=310	=310	=310	=310
4FF/	f	4cc\	f	4ff\	f	8aa\L	f
.	.	.	.	.	.	16bb-\L	.
.	.	.	.	.	.	16aa\JJ	.
4r	.	4r	.	4r	.	8gg'\L	.
.	.	.	.	.	.	8aa'\J	.
8E'\L	.	8e'\L	.	8ee'\L	.	8ee'\L	.
8F'\J	.	8f'\J	.	8ff'\J	.	8ff'\J	.
=311	=311	=311	=311	=311	=311	=311	=311
4C/	.	4c\	.	4cc\	.	8cc\L	.
.	.	.	.	.	.	16dd\L	.
.	.	.	.	.	.	16cc\JJ	.
4r	.	4r	.	4r	.	8bn'\L	.
.	.	.	.	.	.	8cc'\J	.
8GG#'/L	.	8G#'/L	.	8g#'/L	.	8g#'/L	.
8AA'/J	.	8A'/J	.	8a'/J	.	8a'/J	.
=312	=312	=312	=312	=312	=312	=312	=312
4FF/	.	4F/	.	4f/	.	8f/L	.
.	.	.	.	.	.	16g/L	.
.	.	.	.	.	.	16f/JJ	.
4r	.	4r	.	4r	.	8e'/L	.
.	.	.	.	.	.	8f'/J	.
8CC'/L	.	8C'/L	.	8c'/L	.	8c'/L	.
8EE'/J	.	8E'/J	.	8e'/J	.	8e'/J	.
=313	=313	=313	=313	=313	=313	=313	=313
4FF'/	.	4F'/	.	4f'/	.	4f'/	.
4FF'/	.	4F'/	.	4A'/ 4f'/	.	4a'\ 4ff'\	.
4r	.	4r	.	4r	.	4r	.
==	==	==	==	==	==	==	==
*-	*-	*-	*-	*-	*-	*-	*-
!!!ENC: Craig Stuart Sapp
!!!END: 2004/09/06/
!!!RWG: shorthand for repeated notes not expanded
